!!!!SEGMENT: pl-sa--172-a-v-2--009_szczurowski-jacek--msza-swiateczna-ressurexit.krn
!!!cenid: 17xx:269
!!!COM: Szczurowski, Jacek
!!!COM-rismID: pe30017605
!!!CDT: 1716/08/15-~1733
!!!CNT: Polish
!!!OPR: Msza świąteczna
!!!OTL: Ressurexit
!!!OMV: 009
!!!PDT:
!!!AGN: Sacred; Mass
!!!SMS-siglum: PL-SA
!!!SMS-shelfmark: 172/A V 2
!!!SMS-shelfwork: 001-009 M
!!!NIFC-rismSourceID:
!!!NIFC-rismChildID:
!!!NIFC-islandoraID:
!!!URL-pdf-islandora:
!!!URL-scan: https://bc.bdsandomierz.pl/dlibra/publication/1506/edition/1474/content @EN{Scan in the Sandomierz Diocese Digital Library} @PL{Skany w portalu Cyfrowa Biblioteka Diecezjalna w Sandomierzu}
!!!ONB-nifc: UWAGA: części Mszy: Kyrie, Christe, Et in terra, Laudamus, Qui tollis, Quoniam, Patrem, Et Incarnatus, Ressurexit, Sanctus, Osanna, Benedictus, Agnus Dei
!!!AIN: 2 cor 1 organ 2 soprn 2 violn
!!!OMD:
!!!OMD-mod: Allegro
!!!key: D
**kern	**fba	**dynam	**kern	**dynam	**kern	**dynam	**kern	**text	**kern	**text	**kern	**kern
*part7	*part7	*part7	*part6	*part6	*part5	*part5	*part4	*part4	*part3	*part3	*part2	*part1
*staff7	*	*	*staff6	*	*staff5	*	*staff4	*staff4	*staff3	*staff3	*staff2	*staff1
*I"Organo	*	*	*I"Violino 2di	*	*I"Violino. Primo	*	*I"Soprano 2.do:	*	*I"Soprano Primo.	*	*I"Corno 2.do Ex D:	*I"Corno Primo ex D:
*	*	*	*mI"Violino II	*	*mI"Violino I	*	*mI"Soprano II	*	*mI"Soprano I	*	*mI"Corno II in D	*mI"Corno I in D
*I'org	*	*	*I'vl 2	*	*I'vl 1	*	*I'S 2	*	*I'S 1	*	*I'cor 2 in D	*I'cor 1 in D
*Iorgan	*	*	*Ivioln	*	*Ivioln	*	*Isoprn	*	*Isoprn	*	*Icor	*Icor
*ICklav	*	*	*ICstr	*	*ICstr	*	*ICvox	*	*ICvox	*	*ICbras	*ICbras
*IGcont	*	*	*	*	*	*	*	*	*	*	*	*
*clefF4	*	*	*clefG2	*	*clefG2	*	*clefC1	*	*clefC1	*	*clefG2	*clefG2
*	*	*	*	*	*	*	*mclefG2	*	*mclefG2	*	*	*
*	*	*	*	*	*	*	*	*	*	*	*ITrd6c10	*ITrd6c10
*k[f#c#]	*	*	*k[f#c#]	*	*k[f#c#]	*	*k[c#f#]	*	*k[f#c#]	*	*k[f#c#]	*k[f#c#]
*	*	*	*	*	*	*	*mk[f#c#]	*	*	*	*	*
*D:	*	*	*D:	*	*D:	*	*D:	*	*D:	*	*D:	*D:
*M2/4	*	*	*M2/4	*	*M2/4	*	*M2/4	*	*M2/4	*	*M2/4	*M2/4
=1	=1	=1	=1	=1	=1	=1	=1	=1	=1	=1	=1	=1
!LO:TX:rj:a:t=allo:mod=	!	!	!LO:TX:a:t=allo:mod=	!	!LO:TX:a:t=allo:mod=	!	!LO:TX:a:t=24:mod=	!	!	!	!	!
16d\LL	.	.	16dd\LL	.	16dd/LL	.	0r	.	0r	.	8d/L	8d/L
16d\	.	.	16dd\	.	16dd/	.	.	.	.	.	.	.
16A\	.	.	16a\	.	16a/	.	.	.	.	.	8A/	8A/
16A\JJ	.	.	16a\JJ	.	16a/JJ	.	.	.	.	.	.	.
16F#\LL	.	.	16f#/LL	.	16f#/LL	.	.	.	.	.	8F#/	8F#/
16F#\	.	.	16f#/	.	16f#/	.	.	.	.	.	.	.
16D\	.	.	16d/	.	16d/	.	.	.	.	.	8D/J	8D/J
16D\JJ	.	.	16d/JJ	.	16d/JJ	.	.	.	.	.	.	.
!	!	!	!LO:LB:g=original	!	!	!	!	!	!	!	!	!
=2	=2	=2	=2	=2	=2	=2	=2	=2	=2	=2	=2	=2
16D\LL	.	.	16d/LL	.	16d/LL	.	.	.	.	.	8D/L	8D/L
16D\	.	.	16d/	.	16d/	.	.	.	.	.	.	.
16F#\	.	.	16f#/	.	16f#/	.	.	.	.	.	8F#/	8F#/
16F#\JJ	.	.	16f#/JJ	.	16f#/JJ	.	.	.	.	.	.	.
16A\LL	.	.	16a/LL	.	16a/LL	.	.	.	.	.	8A/	8A/
16A\	.	.	16a/	.	16a/	.	.	.	.	.	.	.
16d\	.	.	16dd/	.	16dd/	.	.	.	.	.	8d/J	8d/J
16d\JJ	.	.	16dd/JJ	.	16dd/JJ	.	.	.	.	.	.	.
=3	=3	=3	=3	=3	=3	=3	=3	=3	=3	=3	=3	=3
!	!	!	!	!	!	!	!	!	!	!	!LO:TX:t=P:problem:brak taktu	!
!	!	!	!	!	!	!	!	!	!	!	!LO:MO:mod=8dL@	!
16d\LL	.	.	16dd\LL	.	16dd\LL	.	.	.	.	.	2ryy	8d/L
16d\	.	.	16dd\	.	16dd\	.	.	.	.	.	.	.
!	!	!	!	!	!	!	!	!	!	!	!LO:MO:null:mod=8A@	!
16A\	.	.	16a\	.	16a\	.	.	.	.	.	.	8A/
16A\JJ	.	.	16a\JJ	.	16a\JJ	.	.	.	.	.	.	.
!	!	!	!	!	!	!	!	!	!	!	!LO:MO:null:mod=8F#@	!
16F#\LL	.	.	16f#/LL	.	16f#/LL	.	.	.	.	.	.	8F#/
16F#\	.	.	16f#/	.	16f#/	.	.	.	.	.	.	.
!	!	!	!	!	!	!	!	!	!	!	!LO:MO:null:mod=8DJ@	!
16D\	.	.	16d/	.	16d/	.	.	.	.	.	.	8D/J
16D\JJ	.	.	16d/JJ	.	16d/JJ	.	.	.	.	.	.	.
=4	=4	=4	=4	=4	=4	=4	=4	=4	=4	=4	=4	=4
!LO:TX:t=P:problem=mixed beam	!	!	!	!	!	!	!	!	!	!	!	!
8A\L	.	.	16a/LL	.	16a/LL	.	.	.	.	.	8A/L	8A/L
.	.	.	16e/	.	16e/	.	.	.	.	.	.	.
8AA/	.	.	16c#/	.	16c#/	.	.	.	.	.	16AA/L	16A/L
.	.	.	16A/JJ	.	16A/JJ	.	.	.	.	.	16AA/JJ	16A/JJ
!	!	!	!	!	!LO:LB:g=original	!	!	!	!	!	!	!
!	!	!	!LO:TX:t=P:problem=mixed beam	!	!LO:TX:t=P:problem=mixed beam	!	!	!	!	!	!LO:TX:t=P:problem=mixed beam	!LO:TX:t=P:problem=mixed beam
8A\	.	.	8A/L	.	8A/L	.	.	.	.	.	8AA/L	8A/L
8F#\J	.	.	8ff#\J	.	8aa\J	.	.	.	.	.	8f#\J	8a\J
=5	=5	=5	=5	=5	=5	=5	=5	=5	=5	=5	=5	=5
8G\L	.	.	16gg\LL	.	16bb\LL	.	0r	.	0r	.	4g\	4b\
.	.	.	16gg\	.	16bb\	.	.	.	.	.	.	.
8G\	.	.	16dd\	.	16gg\	.	.	.	.	.	.	.
.	.	.	16dd\JJ	.	16gg\JJ	.	.	.	.	.	.	.
8G\	.	.	16b/LL	.	16dd\LL	.	.	.	.	.	4r	4r
.	.	.	16b/	.	16dd\	.	.	.	.	.	.	.
8G\J	.	.	16g/	.	16b\	.	.	.	.	.	.	.
.	.	.	16g/JJ	.	16b\JJ	.	.	.	.	.	.	.
=6	=6	=6	=6	=6	=6	=6	=6	=6	=6	=6	=6	=6
!	!	!	!	!	!	!	!	!	!	!	!LO:TX:a:t=1:mod=	!LO:TX:a:t=1:mod=
8G\L	.	.	16g/LL	.	16b/LL	.	.	.	.	.	2r	2r
.	.	.	16g/	.	16b/	.	.	.	.	.	.	.
8G\	.	.	16g/	.	16b/	.	.	.	.	.	.	.
.	.	.	16g/JJ	.	16b/JJ	.	.	.	.	.	.	.
8G\	.	.	16g/LL	.	16b/LL	.	.	.	.	.	.	.
.	.	.	16g/	.	16b/	.	.	.	.	.	.	.
8G\J	.	.	16g/	.	16b/	.	.	.	.	.	.	.
.	.	.	16g/JJ	.	16b/JJ	.	.	.	.	.	.	.
=7	=7	=7	=7	=7	=7	=7	=7	=7	=7	=7	=7	=7
8D/L	.	.	16ff#\LL	.	16aa\LL	.	.	.	.	.	4f#\	4a\
.	.	.	16ff#\	.	16aa\	.	.	.	.	.	.	.
8D/	.	.	16dd\	.	16ff#\	.	.	.	.	.	.	.
.	.	.	16dd\JJ	.	16ff#\JJ	.	.	.	.	.	.	.
8D/	.	.	16a/LL	.	16dd\LL	.	.	.	.	.	4r	4r
.	.	.	16a/	.	16dd\	.	.	.	.	.	.	.
8D/J	.	.	16f#/	.	16a\	.	.	.	.	.	.	.
.	.	.	16f#/JJ	.	16a\JJ	.	.	.	.	.	.	.
=8	=8	=8	=8	=8	=8	=8	=8	=8	=8	=8	=8	=8
!	!	!	!LO:TX:t=P:problem:brak tt. nr 8-9	!	!	!	!	!	!	!	!LO:TX:a:t=1:mod=	!LO:TX:a:t=1:mod=
!	!	!	!LO:MO:mod=16f#LL@	!	!	!	!	!	!	!	!	!
8D/L	.	.	2ryy	.	16a/LL	.	.	.	.	.	2r	2r
!	!	!	!LO:MO:null:mod=16f#@	!	!	!	!	!	!	!	!	!
.	.	.	.	.	16a/	.	.	.	.	.	.	.
!	!	!	!LO:MO:null:mod=16f#@	!	!	!	!	!	!	!	!	!
8D/	.	.	.	.	16a/	.	.	.	.	.	.	.
!	!	!	!LO:MO:null:mod=16f#@JJ	!	!	!	!	!	!	!	!	!
.	.	.	.	.	16a/JJ	.	.	.	.	.	.	.
!	!	!	!LO:MO:null:mod=16f#@LL	!	!	!	!	!	!	!	!	!
8D/	.	.	.	.	16a/LL	.	.	.	.	.	.	.
!	!	!	!LO:MO:null:mod=16f#@	!	!	!	!	!	!	!	!	!
.	.	.	.	.	16a/	.	.	.	.	.	.	.
!	!	!	!LO:MO:null:mod=16f#@	!	!	!	!	!	!	!	!	!
8D/J	.	.	.	.	16a/	.	.	.	.	.	.	.
!	!	!	!LO:MO:null:mod=16f#@JJ	!	!	!	!	!	!	!	!	!
.	.	.	.	.	16a/JJ	.	.	.	.	.	.	.
=9	=9	=9	=9	=9	=9	=9	=9	=9	=9	=9	=9	=9
!	!	!	!LO:MO:mod=16eeLL@	!	!	!	!	!	!	!	!	!
8AA/L	.	.	2ryy	.	16gg\LL	.	0r	.	0r	.	4e\	4g\
!	!	!	!LO:MO:null:mod=16ee@	!	!	!	!	!	!	!	!	!
.	.	.	.	.	16gg\	.	.	.	.	.	.	.
!	!	!	!LO:MO:null:mod=16cc#@	!	!	!	!	!	!	!	!	!
8AA/	.	.	.	.	16ee\	.	.	.	.	.	.	.
!	!	!	!LO:MO:null:mod=16cc#@JJ	!	!	!	!	!	!	!	!	!
.	.	.	.	.	16ee\JJ	.	.	.	.	.	.	.
!	!	!	!LO:MO:null:mod=16a@LL	!	!	!	!	!	!	!	!	!
8AA/	.	.	.	.	16cc#/LL	.	.	.	.	.	4r	4r
!	!	!	!LO:MO:null:mod=16a@	!	!	!	!	!	!	!	!	!
.	.	.	.	.	16cc#/	.	.	.	.	.	.	.
!	!	!	!LO:MO:null:mod=16e@	!	!	!	!	!	!	!	!	!
8AA/J	.	.	.	.	16g/	.	.	.	.	.	.	.
!	!	!	!LO:MO:null:mod=16e@JJ	!	!	!	!	!	!	!	!	!
.	.	.	.	.	16g/JJ	.	.	.	.	.	.	.
!LO:LB:g=original	!	!	!	!	!	!	!	!	!	!	!	!
=10	=10	=10	=10	=10	=10	=10	=10	=10	=10	=10	=10	=10
8AA/L	.	.	16e/LL	.	16g/LL	.	.	.	.	.	8e\L	8g\L
.	.	.	16e/	.	16g/	.	.	.	.	.	.	.
8AA/	.	.	16e/	.	16g/	.	.	.	.	.	8e\	8g\
.	.	.	16e/JJ	.	16g/JJ	.	.	.	.	.	.	.
8AA/	.	.	16e/LL	.	16g/LL	.	.	.	.	.	8e\	8g\
.	.	.	16e/	.	16g/	.	.	.	.	.	.	.
8AA/J	.	.	16e/	.	16g/	.	.	.	.	.	8e\J	8g\J
.	.	.	16e/JJ	.	16g/JJ	.	.	.	.	.	.	.
=11	=11	=11	=11	=11	=11	=11	=11	=11	=11	=11	=11	=11
8D\L	.	.	16e/LL	.	16g/LL	.	.	.	.	.	8e\L	8g\L
.	.	.	16d/J	.	16f#/J	.	.	.	.	.	.	.
16D\L	.	.	8d/J	.	8f#/J	.	.	.	.	.	8d\J	8f#\J
16E\JJ	.	.	.	.	.	.	.	.	.	.	.	.
8F#\L	6	.	8r	.	8r	.	.	.	.	.	8r	8r
8D\J	.	.	8ff#\	.	8aa\	.	.	.	.	.	8f#\	8a\
!	!	!	!LO:LB:g=original	!	!	!	!	!	!	!	!	!
=12	=12	=12	=12	=12	=12	=12	=12	=12	=12	=12	=12	=12
8G\L	.	.	16gg\LL	.	16bb\LL	.	.	.	.	.	4g\	4b\
.	.	.	16gg\	.	16bb\	.	.	.	.	.	.	.
8G\	.	.	16dd\	.	16gg\	.	.	.	.	.	.	.
.	.	.	16dd\JJ	.	16gg\JJ	.	.	.	.	.	.	.
8G\	.	.	16b/LL	.	16dd\LL	.	.	.	.	.	4r	4r
.	.	.	16b/	.	16dd\	.	.	.	.	.	.	.
8G\J	.	.	16g/	.	16b\	.	.	.	.	.	.	.
.	.	.	16g/JJ	.	16b\JJ	.	.	.	.	.	.	.
=13	=13	=13	=13	=13	=13	=13	=13	=13	=13	=13	=13	=13
!	!	!	!	!	!	!	!	!	!	!	!LO:TX:a:t=1:mod=	!LO:TX:a:t=1:mod=
8G\L	.	.	16g/LL	.	16b/LL	.	0r	.	0r	.	2r	2r
.	.	.	16g/	.	16b/	.	.	.	.	.	.	.
8G\	.	.	16g/	.	16b/	.	.	.	.	.	.	.
.	.	.	16g/JJ	.	16b/JJ	.	.	.	.	.	.	.
!	!	!	!	!	!LO:LB:g=original	!	!	!	!	!	!	!
8G\	.	.	16g/LL	.	16b/LL	.	.	.	.	.	.	.
.	.	.	16g/	.	16b/	.	.	.	.	.	.	.
8G\J	.	.	16g/	.	16b/	.	.	.	.	.	.	.
.	.	.	16g/JJ	.	16b/JJ	.	.	.	.	.	.	.
=14	=14	=14	=14	=14	=14	=14	=14	=14	=14	=14	=14	=14
8D/L	.	.	16ff#\LL	.	16aa\LL	.	.	.	.	.	4f#\	4a\
.	.	.	16ff#\	.	16aa\	.	.	.	.	.	.	.
8D/	.	.	16dd\	.	16ff#\	.	.	.	.	.	.	.
.	.	.	16dd\JJ	.	16ff#\JJ	.	.	.	.	.	.	.
8D/	.	.	16a/LL	.	16dd\LL	.	.	.	.	.	4r	4r
.	.	.	16a/	.	16dd\	.	.	.	.	.	.	.
8D/J	.	.	16f#/	.	16a\	.	.	.	.	.	.	.
.	.	.	16f#/JJ	.	16a\JJ	.	.	.	.	.	.	.
!	!	!	!	!	!	!	!	!	!	!	!LO:LB:g=original	!
=15	=15	=15	=15	=15	=15	=15	=15	=15	=15	=15	=15	=15
!	!	!	!	!	!	!	!	!	!	!	!LO:TX:a:t=1:mod=	!LO:TX:a:t=1:mod=
8D/L	.	.	16f#/LL	.	16a/LL	.	.	.	.	.	2r	2r
.	.	.	16f#/	.	16a/	.	.	.	.	.	.	.
8D/	.	.	16f#/	.	16a/	.	.	.	.	.	.	.
.	.	.	16f#/JJ	.	16a/JJ	.	.	.	.	.	.	.
8D/	.	.	16f#/LL	.	16a/LL	.	.	.	.	.	.	.
.	.	.	16f#/	.	16a/	.	.	.	.	.	.	.
8D/J	.	.	16f#/	.	16a/	.	.	.	.	.	.	.
.	.	.	16f#/JJ	.	16a/JJ	.	.	.	.	.	.	.
=16	=16	=16	=16	=16	=16	=16	=16	=16	=16	=16	=16	=16
8AA/L	.	.	16ee\LL	.	16gg\LL	.	.	.	.	.	4e\	4g\
.	.	.	16ee\	.	16gg\	.	.	.	.	.	.	.
8AA/	.	.	16cc#\	.	16ee\	.	.	.	.	.	.	.
.	.	.	16cc#\JJ	.	16ee\JJ	.	.	.	.	.	.	.
8AA/	.	.	16a/LL	.	16cc#\LL	.	.	.	.	.	4r	4r
.	.	.	16a/	.	16cc#\	.	.	.	.	.	.	.
8AA/J	.	.	16e/	.	16g\	.	.	.	.	.	.	.
.	.	.	16e/JJ	.	16g\JJ	.	.	.	.	.	.	.
!	!	!	!	!	!	!	!	!	!	!	!	!LO:LB:g=original
=17	=17	=17	=17	=17	=17	=17	=17	=17	=17	=17	=17	=17
8AA/L	.	.	16e/LL	.	16g/LL	.	0r	.	0r	.	8e\L	8g\L
.	.	.	16e/	.	16g/	.	.	.	.	.	.	.
8AA/	.	.	16e/	.	16g/	.	.	.	.	.	8e\	8g\
.	.	.	16e/JJ	.	16g/JJ	.	.	.	.	.	.	.
8AA/	.	.	16e/LL	.	16g/LL	.	.	.	.	.	8e\	8g\
.	.	.	16e/	.	16g/	.	.	.	.	.	.	.
8AA/J	.	.	16e/	.	16g/	.	.	.	.	.	8e\J	8g\J
.	.	.	16e/JJ	.	16g/JJ	.	.	.	.	.	.	.
=18	=18	=18	=18	=18	=18	=18	=18	=18	=18	=18	=18	=18
8AA/L	.	.	16d/LL	.	16f#/LL	.	.	.	.	.	16d/LL	16f#\LL
.	.	.	16c#/J	.	16e/J	.	.	.	.	.	16A/J	16e\J
8AA/	.	.	8c#/J	.	8e/J	.	.	.	.	.	8A/J	8e\J
8AA/	.	.	8r	.	8r	.	.	.	.	.	8r	8r
8AA/J	.	.	8ff#\	.	8aa\	.	.	.	.	.	8f#\	8a\
=19	=19	=19	=19	=19	=19	=19	=19	=19	=19	=19	=19	=19
!	!	!	!	!	!LO:TX:t=P:problem=mixed beam	!	!	!	!	!	!	!
8A\L	.	.	16ff#\LL	.	16aa\LL	.	.	.	.	.	4f#\	4a\
.	.	.	16a\	.	16a/	.	.	.	.	.	.	.
8A\	.	.	16a\	.	16a/	.	.	.	.	.	.	.
.	.	.	16ff#\JJ	.	16aa\JJ	.	.	.	.	.	.	.
!	!	!	!LO:LB:g=original	!	!	!	!	!	!	!	!	!
!	!	!	!	!	!LO:TX:t=P:problem=mixed beam	!	!	!	!	!	!	!
8A\	.	.	16ee\LL	.	16gg\LL	.	.	.	.	.	4e\	4g\
.	.	.	16a\	.	16a/	.	.	.	.	.	.	.
8A\J	.	.	16a\	.	16a/	.	.	.	.	.	.	.
.	.	.	16ee\JJ	.	16gg\JJ	.	.	.	.	.	.	.
=20	=20	=20	=20	=20	=20	=20	=20	=20	=20	=20	=20	=20
!LO:TX:t=P:problem=mixed beam	!	!	!	!	!	!	!	!	!	!	!	!
8A\L	.	.	16dd\LL	.	16ff#\LL	.	.	.	.	.	8d/L	8f#\L
.	.	.	16cc#\J	.	16ee\J	.	.	.	.	.	.	.
8A\	.	.	8cc#\J	.	8ee\J	.	.	.	.	.	8A/J	8e\J
8A\	.	.	8r	.	8r	.	.	.	.	.	4r	4r
8AA/J	.	.	8f#/	.	8a/	.	.	.	.	.	.	.
=21	=21	=21	=21	=21	=21	=21	=21	=21	=21	=21	=21	=21
!	!	!	!	!	!	!	!	!	!	!	!LO:TX:a:t=1:mod=	!LO:TX:a:t=1:mod=
8AA/L	.	.	16f#/LL	.	16a/LL	.	0r	.	0r	.	2r	2r
.	.	.	16A/	.	16A/	.	.	.	.	.	.	.
8AA/	.	.	16A/	.	16A/	.	.	.	.	.	.	.
.	.	.	16f#/JJ	.	16a/JJ	.	.	.	.	.	.	.
8AA/	.	.	16e/LL	.	16g/LL	.	.	.	.	.	.	.
.	.	.	16A/	.	16A/	.	.	.	.	.	.	.
8AA/J	.	.	16A/	.	16A/	.	.	.	.	.	.	.
.	.	.	16e/JJ	.	16g/JJ	.	.	.	.	.	.	.
!LO:LB:g=original	!	!	!	!	!LO:LB:g=original	!	!	!	!	!	!	!
=22	=22	=22	=22	=22	=22	=22	=22	=22	=22	=22	=22	=22
!LO:TX:t=P:problem=mixed beam	!	!	!	!	!	!	!	!	!	!	!	!
8AA/L	.	.	16d/LL	.	16f#/LL	.	.	.	.	.	4r	4r
.	.	.	16c#/J	.	16e/J	.	.	.	.	.	.	.
8A\	.	.	8c#/J	.	8e/J	.	.	.	.	.	.	.
8G\	.	.	8r	.	8r	.	.	.	.	.	8r	8r
8E\J	.	.	8g/	.	8cc#\	.	.	.	.	.	8e\	8cc#\
=23	=23	=23	=23	=23	=23	=23	=23	=23	=23	=23	=23	=23
8D\L	.	.	8f#/L	.	16dd\LL	.	.	.	.	.	4f#\	4dd\
.	.	.	.	.	16a\	.	.	.	.	.	.	.
8D\	.	.	8f#/J	.	16f#\	.	.	.	.	.	.	.
.	.	.	.	.	16a\JJ	.	.	.	.	.	.	.
8G\	.	.	8g/L	.	16b/LL	.	.	.	.	.	8g\L	8b\L
.	.	.	.	.	16g/	.	.	.	.	.	.	.
8G\J	.	.	16e/L	.	16e/	.	.	.	.	.	8e\J	8g\J
.	.	.	16d/JJ	.	16d/JJ	.	.	.	.	.	.	.
=24	=24	=24	=24	=24	=24	=24	=24	=24	=24	=24	=24	=24
!LO:TX:t=P:problem=mixed beam	!	!	!	!	!	!	!	!	!	!	!	!
8A\L	.	.	16d/LL	.	16f#/LL	.	.	.	.	.	8d\L	8f#\L
.	.	.	16d/	.	16f#/	.	.	.	.	.	.	.
8A\	.	.	16d/	.	16f#/	.	.	.	.	.	8d\	8f#\
.	.	.	16d/JJ	.	16f#/JJ	.	.	.	.	.	.	.
8AA/	.	.	16c#/LL	.	16e/LL	.	.	.	.	.	8A\	8e\
.	.	.	16c#/	.	16e/	.	.	.	.	.	.	.
8AA/J	.	.	16c#/	.	16e/	.	.	.	.	.	8A\J	8e\J
.	.	.	16c#/JJ	.	16e/JJ	.	.	.	.	.	.	.
=25	=25	=25	=25	=25	=25	=25	=25	=25	=25	=25	=25	=25
!	!	!	!	!	!	!	!LO:TX:a:t=allo:mod=	!	!	!	!	!
8D/L	.	.	4d/	.	4d/	.	4r	.	4r	.	4F#/	4d\
8AA/	.	.	.	.	.	.	.	.	.	.	.	.
8DD/J	.	.	4r	.	8r	.	8r	.	8r	.	4r	4r
!	!	!	!	!	!	!LO:DY:a	!	!LO:MO:mod=Et	!LO:TX:a:t=allo:mod=	!LO:MO:mod=Et	!	!
8r	.	.	.	.	8a/	p	8a\	et	8a\	et	.	.
=26	=26	=26	=26	=26	=26	=26	=26	=26	=26	=26	=26	=26
!	!	!LO:DY:a	!	!LO:DY:a	!	!	!	!LO:MO:mod=re-	!	!LO:MO:mod=re-	!	!
8D/L	.	p	8dd\L	p	8dd\L	.	4dd\	Re-	4dd\	Re-	8r	8r
8D/	.	.	8dd\	.	8dd\	.	.	.	.	.	8d\	8f#\
8D/	.	.	8ff#\	.	8aa\	.	4ff#\	-sur-	4aa\	-sur-	8r	8r
8D/J	.	.	8ff#\J	.	8aa\J	.	.	.	.	.	8f#\	8a\
=27	=27	=27	=27	=27	=27	=27	=27	=27	=27	=27	=27	=27
!	!	!	!	!	!	!	!	!LO:MO:mod=-re-	!	!	!	!
8AA/L	.	.	8a/L	.	8ff#\L	.	8dd\L	-rex-	8ff#\L	-re-	8f#\L	8a\L
8AA/	.	.	8g/	.	8ee\	.	8g\	.	8ee\	.	8e\	8g\
8AA/	.	.	8f#/	.	8dd\	.	8f#\	.	8dd\	.	8d\	8f#\
8AA/J	.	.	8e/J	.	8cc#\J	.	8e\J	.	8cc#\J	.	8A\J	8e\J
=28	=28	=28	=28	=28	=28	=28	=28	=28	=28	=28	=28	=28
!	!	!	!	!	!	!	!	!LO:MO:mod=-xit	!	!	!	!
8D\L	.	.	4f#/	.	8dd\L	.	4f#/	-it	8dd\	.	4F#/	8d\L
16D\L	.	.	.	.	8a\J	.	.	.	8a\	-xit	.	8A\J
16E\JJ	.	.	.	.	.	.	.	.	.	.	.	.
8F#\L	.	.	8r	.	8r	.	8r	.	8r	.	4r	4r
8D\J	.	.	8a/	.	8a/	.	8a\	ter-	8a\	ter-	.	.
!	!	!	!LO:LB:g=original	!	!	!	!	!	!	!	!	!
=29	=29	=29	=29	=29	=29	=29	=29	=29	=29	=29	=29	=29
!	!	!	!	!	!	!	!	!	!	!	!	!LO:TX:a:t=1:mod=
8D/L	.	.	8dd\L	.	8dd\L	.	4dd\	-ti-	4dd\	-ti-	2r	2r
8D/	.	.	8dd\	.	8dd\	.	.	.	.	.	.	.
8D/	.	.	8dd\	.	8ff#\	.	4ff#\	-a	4aa\	-a	.	.
8D/J	.	.	8ff#\J	.	8aa\J	.	.	.	.	.	.	.
!	!	!	!	!	!	!	!LO:LB:g=original	!	!LO:LB:g=original	!	!	!
=30	=30	=30	=30	=30	=30	=30	=30	=30	=30	=30	=30	=30
8AA/L	.	.	8a/L	.	8ff#\L	.	8dd\L	di-	8ff#\L	di-	8f#\L	8a\L
8AA/	.	.	8g/	.	8ee\	.	8g\	.	8ee\	.	8e\	8g\
8AA/	.	.	8f#/	.	8dd\	.	8f#\	.	8dd\	.	8d\	8f#\
8AA/J	.	.	8e/J	.	8cc#\J	.	8e\J	.	8cc#\J	.	8A\J	8e\J
=31	=31	=31	=31	=31	=31	=31	=31	=31	=31	=31	=31	=31
8D\L	.	.	4f#/	.	8dd\L	.	4f#/	-e	8dd\	.	4F#/	8d\L
16D\L	.	.	.	.	8a\J	.	.	.	8a\	-e	.	8A\J
16E\JJ	.	.	.	.	.	.	.	.	.	.	.	.
8F#\L	.	.	8r	.	8r	.	4r	.	8r	.	4r	4r
8D\J	.	.	8f#/	.	8a/	.	.	.	8a\	se-	.	.
=32	=32	=32	=32	=32	=32	=32	=32	=32	=32	=32	=32	=32
!	!	!	!	!	!	!	!LO:TX:a:t=7:mod=	!	!	!	!	!
!	!	!	!	!	!	!	!LO:MO:mod=2r	!	!	!	!	!
8G\L	.	.	16g\LL	.	16b\LL	.	0r	.	8b\L	-cun-	4g\	4b\
.	.	.	16g\	.	16b\	.	.	.	.	.	.	.
8G\	.	.	16dd\	.	16gg\	.	.	.	8gg\J	.	.	.
.	.	.	16dd\JJ	.	16gg\JJ	.	.	.	.	.	.	.
!	!	!	!	!	!	!	!	!	!	!LO:MO:mod=-dum	!	!
8G\	.	.	16b/LL	.	16dd\LL	.	.	.	8dd\	-du(m)	4r	4r
.	.	.	16b/	.	16dd\	.	.	.	.	.	.	.
!	!	!	!	!	!	!	!	!	!	!LO:MO:mod=Scri-	!	!
8G\J	.	.	16g/	.	16b\	.	.	.	8b\	scri-	.	.
.	.	.	16g/JJ	.	16b\JJ	.	.	.	.	.	.	.
!	!	!	!	!	!LO:LB:g=original	!	!	!	!	!	!LO:LB:g=original	!
!!LO:MO:ori
=33	=33	=33	=33	=33	=33	=33	=33	=33	=33	=33	=33	=33
!LO:TX:t=P:problem:brak taktu	!	!	!LO:TX:t=P:problem:brak taktu	!	!LO:TX:t=P:problem:brak taktu	!	!LO:TX:t=P:problem:brak taktu	!	!LO:TX:t=P:problem:brak taktu	!	!LO:TX:t=P:problem:niepotrzebna powtórka t. 32	!LO:TX:t=P:problem:brak taktu
2ryy	.	.	2ryy	.	2ryy	.	.	.	2ryy	.	4g\	2ryy
.	.	.	.	.	.	.	.	.	.	.	4r	.
!!LO:MO:end
=34	=34	=34	=34	=34	=34	=34	=34	=34	=34	=34	=34	=34
!	!	!	!	!	!	!	!LO:MO:null:mod=2r	!	!	!	!	!
8D/L	.	.	16f#/LL	.	16a\LL	.	.	.	8a\	-ptu-	4f#\	4a\
.	.	.	16f#/	.	16a\	.	.	.	.	.	.	.
8D/	.	.	16dd/	.	16ff#\	.	.	.	8ff#\	-ras	.	.
.	.	.	16dd/JJ	.	16ff#\JJ	.	.	.	.	.	.	.
8D/	.	.	16a/LL	.	16dd\LL	.	.	.	8dd\	et	4r	4r
.	.	.	16a/	.	16dd\	.	.	.	.	.	.	.
8D/J	.	.	16f#/	.	16a\	.	.	.	8a\	a-	.	.
.	.	.	16f#/JJ	.	16a\JJ	.	.	.	.	.	.	.
!LO:LB:g=original	!	!	!	!	!	!	!	!	!	!	!	!
=35	=35	=35	=35	=35	=35	=35	=35	=35	=35	=35	=35	=35
!	!	!	!	!	!	!	!LO:MO:null:mod=2r	!	!	!	!	!
8AA/L	.	.	16e/LL	.	16g/LL	.	.	.	8g\L	-scen-	4e\	4g\
.	.	.	16e/	.	16g/	.	.	.	.	.	.	.
8AA/	.	.	16cc#/	.	16ee/	.	.	.	8ee\J	.	.	.
.	.	.	16cc#/JJ	.	16ee/JJ	.	.	.	.	.	.	.
8AA/	.	.	16g/LL	.	16cc#/LL	.	.	.	8cc#\	-dit	8r	8r
.	.	.	16g/	.	16cc#/	.	.	.	.	.	.	.
8AA/J	.	.	16e/	.	16g/	.	.	.	8g/	in	8e\	8g\
.	.	.	16e/JJ	.	16g/JJ	.	.	.	.	.	.	.
=36	=36	=36	=36	=36	=36	=36	=36	=36	=36	=36	=36	=36
8D\L	.	.	16e/LL	.	16g/LL	.	2ryy	.	16g/LL	cae-	8e\L	8g\L
.	.	.	16d/J	.	16f#/J	.	.	.	16f#/JJ	.	.	.
!LO:MO:mod=!null:null	!	!	!	!	!	!	!	!	!	!	!	!
!LO:N:vis=8	!	!	!	!	!	!	!	!	!	!	!	!
16D\L	.	.	8d/J	.	8f#/J	.	.	.	8f#/	-lum	8d\J	8f#\J
!LO:MO:mod=!null:null	!	!	!	!	!	!	!	!	!	!	!	!
!LO:N:vis=8	!	!	!	!	!	!	!	!	!	!	!	!
16E\JJ	.	.	.	.	.	.	.	.	.	.	.	.
8F#\L	.	.	8r	.	8r	.	.	.	8r	.	4r	4r
8D\J	.	.	8f#/	.	8a/	.	.	.	8a\	se-	.	.
=37	=37	=37	=37	=37	=37	=37	=37	=37	=37	=37	=37	=37
!	!	!	!	!	!	!	!	!	!	!	!LO:TX:a:t=2:mod=	!LO:TX:a:t=2:mod=
8G\L	.	.	16g\LL	.	16b\LL	.	1r	.	8b\	-det	1r	1r
.	.	.	16g\	.	16b\	.	.	.	.	.	.	.
8G\	.	.	16dd\	.	16gg\	.	.	.	8gg\	ad	.	.
.	.	.	16dd\JJ	.	16gg\JJ	.	.	.	.	.	.	.
8G\	.	.	16b/LL	.	16dd\LL	.	.	.	8dd\	dex-	.	.
.	.	.	16b/	.	16dd\	.	.	.	.	.	.	.
8G\J	.	.	16g/	.	16b\	.	.	.	16b\	-te-	.	.
!	!	!	!	!	!	!	!	!	!	!LO:MO:mod=-ram	!	!
.	.	.	16g/JJ	.	16b\JJ	.	.	.	16b\	-ra	.	.
!	!	!	!	!	!	!	!	!	!LO:LB:g=original	!	!	!
=38	=38	=38	=38	=38	=38	=38	=38	=38	=38	=38	=38	=38
!LO:TX:t=P:problem:brak taktu	!	!	!	!	!	!	!	!	!	!	!	!
!LO:MO:mod=8DL@	!	!	!	!	!	!	!	!	!	!	!	!
2ryy	.	.	16f#/LL	.	16a\LL	.	.	.	8a\L	Pa-	.	.
.	.	.	16f#/	.	16a\	.	.	.	.	.	.	.
!LO:MO:null:mod=8D@	!	!	!	!	!	!	!	!	!	!	!	!
.	.	.	16dd/	.	16ff#\	.	.	.	8ff#\	.	.	.
.	.	.	16dd/JJ	.	16ff#\JJ	.	.	.	.	.	.	.
!LO:MO:null:mod=8D@	!	!	!	!	!	!	!	!	!	!	!	!
.	.	.	16a/LL	.	16dd\LL	.	.	.	8dd\	.	.	.
.	.	.	16a/	.	16dd\	.	.	.	.	.	.	.
!LO:MO:null:mod=8DJ@	!	!	!	!	!	!	!	!	!	!	!	!
.	.	.	16f#/	.	16a\	.	.	.	8a\J	.	.	.
.	.	.	16f#/JJ	.	16a\JJ	.	.	.	.	.	.	.
!	!	!	!LO:LB:g=original	!	!	!	!	!	!	!	!	!
=39	=39	=39	=39	=39	=39	=39	=39	=39	=39	=39	=39	=39
8AA/L	.	.	16e/LL	.	16g/LL	.	2r	.	8g\L	.	4r	4r
.	.	.	16e/	.	16g/	.	.	.	.	.	.	.
8AA/	.	.	16cc#/	.	16ee/	.	.	.	8ee\	.	.	.
.	.	.	16cc#/JJ	.	16ee/JJ	.	.	.	.	.	.	.
8AA/	.	.	16g/LL	.	16cc#/LL	.	.	.	8dd\	.	8r	8r
.	.	.	16g/	.	16cc#/	.	.	.	.	.	.	.
8AA/J	.	.	16e/	.	16g/	.	.	.	8g\J	.	8e\	8g\
.	.	.	16e/JJ	.	16g/JJ	.	.	.	.	.	.	.
=40	=40	=40	=40	=40	=40	=40	=40	=40	=40	=40	=40	=40
8AA/L	.	.	16d/LL	.	16f#/LL	.	4r	.	16f#/LL	.	8d/L	8f#\L
.	.	.	16c#/J	.	16e/J	.	.	.	16e/JJ	.	.	.
!	!	!	!	!	!	!	!	!	!	!LO:MO:mod=-tris.	!	!
8AA/	.	.	8c#/J	.	8e/J	.	.	.	8e/	-tris	8A/J	8e\J
8AA/	.	.	8r	.	8r	.	8r	.	8r	.	8r	8r
!	!	!	!	!	!	!	!	!LO:MO:mod=Et	!	!LO:MO:mod=Et	!	!
8AA/J	.	.	8ff#\	.	8aa\	.	8ff#\	et	8aa\	et	8f#\	8a\
=41	=41	=41	=41	=41	=41	=41	=41	=41	=41	=41	=41	=41
8AA/L	.	.	16ff#\LL	.	8aa\L	.	8ff#\	i-	8aa\	i-	4f#\	4a\
.	.	.	16a\	.	.	.	.	.	.	.	.	.
8AA/	.	.	16a\	.	16a\L	.	16dd\	-te-	16ff#\	-te-	.	.
!	!	!	!	!	!	!	!	!	!	!LO:MO:mod=-rum	!	!
.	.	.	16ff#\JJ	.	16aa\JJ	.	16ff#\	-rum	16aa\	-ru(m)	.	.
8AA/	.	.	16ee\LL	.	8gg\L	.	8ee\	ven-	8gg\	ven-	4e\	4g\
.	.	.	16a\	.	.	.	.	.	.	.	.	.
8AA/J	.	.	16a\	.	16a\L	.	16cc#\LL	-tu-	16ee\LL	-tu-	.	.
.	.	.	16ee\JJ	.	16gg\JJ	.	16ee\JJ	.	16gg\JJ	.	.	.
=42	=42	=42	=42	=42	=42	=42	=42	=42	=42	=42	=42	=42
8AA/L	.	.	16dd\LL	.	16ff#\LL	.	16dd\LL	-rus	16ff#\LL	-rus	8d/L	8f#\L
.	.	.	16cc#\J	.	16ee\J	.	16cc#\JJ	.	16ee\JJ	.	.	.
8AA/	.	.	8cc#\J	.	8ee\J	.	8cc#\	est	8ee\	est	8A/J	8e\J
!	!	!	!	!	!LO:LB:g=original	!	!	!	!	!	!	!
8AA/	.	.	8r	.	8r	.	8r	.	8r	.	4r	4r
8AA/J	.	.	8f#/	.	8a/	.	8f#/	ju-	8a\	ju-	.	.
=43	=43	=43	=43	=43	=43	=43	=43	=43	=43	=43	=43	=43
!	!	!	!	!	!	!	!	!	!	!	!	!LO:TX:a:t=1:mod=
8AA/L	.	.	8f#/L	.	8a/L	.	8f#/L	-di-	8a/L	-di-	2r	2r
8AA/	.	.	16A/L	.	16A/L	.	16d/L	.	16f#/L	.	.	.
.	.	.	16f#/JJ	.	16a/JJ	.	16f#/JJ	.	16a/JJ	.	.	.
8AA/	.	.	8e/L	.	8g/L	.	4e/	-ca-	4g/	-ca-	.	.
8AA/J	.	.	16A/L	.	16A/L	.	.	.	.	.	.	.
.	.	.	16e/JJ	.	16g/JJ	.	.	.	.	.	.	.
=44	=44	=44	=44	=44	=44	=44	=44	=44	=44	=44	=44	=44
!LO:TX:t=P:problem=mixed beam	!	!	!	!	!	!	!	!	!	!	!	!
8AA/L	4	.	16d/LL	.	16f#/LL	.	16d/LL	.	16f#/LL	.	4r	4r
.	.	.	16c#/J	.	16e/J	.	16c#/JJ	.	16e/JJ	.	.	.
8AA/	3	.	8c#/J	.	8e/J	.	8c#/	-re	8e/	-re	.	.
8A\	.	.	8r	.	8r	.	8r	.	8r	.	8r	8r
8G\J	2	.	8e/	.	8cc#\	.	8e/	vi-	8cc#\	vi-	8A/	8e\
=45	=45	=45	=45	=45	=45	=45	=45	=45	=45	=45	=45	=45
!	!	!	!	!	!	!	!	!	!	!	!LO:TX:t=P:problem=mixed beam	!
8F#\L	.	.	16a/LL	.	16dd\LL	.	4f#/	-vos	4dd\	-vos	8F#/L	8d\L
.	.	.	16a/	.	16dd\	.	.	.	.	.	.	.
8F#\	.	.	16a/	.	16dd\	.	.	.	.	.	8F#/	8d\
.	.	.	16a/JJ	.	16dd\JJ	.	.	.	.	.	.	.
!	!	!	!	!	!	!	!LO:LB:g=original	!	!	!	!	!
8G\	6	.	16ee\LL	.	16gg\LL	.	4ee\	et	4gg\	et	8e\	8g\
.	.	.	16ee\	.	16gg\	.	.	.	.	.	.	.
8G\J	.	.	16ee\	.	16gg\	.	.	.	.	.	8e\J	8g\J
.	.	.	16ee\JJ	.	16gg\JJ	.	.	.	.	.	.	.
!	!	!	!	!	!	!	!	!	!LO:PB:g=original	!	!	!
=46	=46	=46	=46	=46	=46	=46	=46	=46	=46	=46	=46	=46
!LO:TX:t=P:problem=mixed beam	!	!	!	!	!	!	!	!LO:MO:mod=mor-	!	!LO:MO:mod=mor-	!	!
8A\L	.	.	16dd\LL	.	16ff#\LL	.	4dd\	Mor-	4ff#\	Mor-	8d/L	8f#\L
.	4	.	16dd\	.	16ff#\	.	.	.	.	.	.	.
8A\	.	.	16dd\	.	16ff#\	.	.	.	.	.	8d/	8f#\
.	.	.	16dd\JJ	.	16ff#\JJ	.	.	.	.	.	.	.
8AA/	.	.	16cc#\LL	.	16ee\LL	.	8.cc#\	.	8.ee\	.	8A/	8e\
.	.	.	16cc#\	.	16ee\	.	.	.	.	.	.	.
8AA/J	3	.	16cc#\	.	16ee\	.	.	.	.	.	8A/J	8e\J
.	.	.	16cc#\JJ	.	16ee\JJ	.	16cc#\	-tu-	16ee\	-tu-	.	.
=47	=47	=47	=47	=47	=47	=47	=47	=47	=47	=47	=47	=47
8D\L	.	.	4dd\	.	4dd\	.	4dd\	-os	4dd\	-os	4F#/	4d\
!	!	!LO:DY:a:mod= 	!	!	!	!	!	!	!	!	!	!
16D\L	.	f	.	.	.	.	.	.	.	.	.	.
16E\JJ	.	.	.	.	.	.	.	.	.	.	.	.
8F#\L	.	.	8r	.	8r	.	4r	.	4r	.	8r	8r
!	!	!LO:DY:t= :mod=%s	!	!LO:DY:a	!	!LO:DY:a	!	!	!	!	!	!
8D\J	.	f	8ff#\	f	8aa\	f	.	.	.	.	8f#\	8a\
!LO:LB:g=original	!	!	!LO:PB:g=original	!	!	!	!	!	!	!	!	!
=48	=48	=48	=48	=48	=48	=48	=48	=48	=48	=48	=48	=48
!	!	!	!	!	!	!	!LO:TX:a:t=9:mod=	!	!LO:TX:a:t=9:mod=	!	!	!
8G\L	.	.	16gg\LL	.	16bb\LL	.	0r	.	0r	.	4g\	4b\
.	.	.	16gg\	.	16bb\	.	.	.	.	.	.	.
8G\	.	.	16ee\	.	16gg\	.	.	.	.	.	.	.
.	.	.	16ee\JJ	.	16gg\JJ	.	.	.	.	.	.	.
8G\	.	.	16b/LL	.	16dd\LL	.	.	.	.	.	4r	4r
.	.	.	16b/	.	16dd\	.	.	.	.	.	.	.
8G\J	.	.	16g/	.	16b\	.	.	.	.	.	.	.
.	.	.	16g/JJ	.	16b\JJ	.	.	.	.	.	.	.
=49	=49	=49	=49	=49	=49	=49	=49	=49	=49	=49	=49	=49
!	!	!	!	!	!	!	!	!	!	!	!	!LO:TX:a:t=1:mod=
8G\L	.	.	16g/LL	.	16b/LL	.	.	.	.	.	2r	2r
.	.	.	16g/	.	16b/	.	.	.	.	.	.	.
8G\	.	.	16g/	.	16b/	.	.	.	.	.	.	.
.	.	.	16g/JJ	.	16b/JJ	.	.	.	.	.	.	.
8G\	.	.	16g/LL	.	16b/LL	.	.	.	.	.	.	.
.	.	.	16g/	.	16b/	.	.	.	.	.	.	.
8G\J	.	.	16g/	.	16b/	.	.	.	.	.	.	.
.	.	.	16g/JJ	.	16b/JJ	.	.	.	.	.	.	.
=50	=50	=50	=50	=50	=50	=50	=50	=50	=50	=50	=50	=50
8D/L	.	.	16ff#\LL	.	16aa\LL	.	.	.	.	.	4f#\	4a\
.	.	.	16ff#\	.	16aa\	.	.	.	.	.	.	.
8D/	.	.	16dd\	.	16ff#\	.	.	.	.	.	.	.
.	.	.	16dd\JJ	.	16ff#\JJ	.	.	.	.	.	.	.
8D/	.	.	16a/LL	.	16dd\LL	.	.	.	.	.	4r	4r
.	.	.	16a/	.	16dd\	.	.	.	.	.	.	.
8D/J	.	.	16f#/	.	16a\	.	.	.	.	.	.	.
.	.	.	16f#/JJ	.	16a\JJ	.	.	.	.	.	.	.
=51	=51	=51	=51	=51	=51	=51	=51	=51	=51	=51	=51	=51
!	!	!	!	!	!	!	!	!	!	!	!	!LO:TX:a:t=1:mod=
8D/L	.	.	16f#/LL	.	16a/LL	.	.	.	.	.	2r	2r
.	.	.	16f#/	.	16a/	.	.	.	.	.	.	.
8D/	.	.	16f#/	.	16a/	.	.	.	.	.	.	.
.	.	.	16f#/JJ	.	16a/JJ	.	.	.	.	.	.	.
8D/	.	.	16f#/LL	.	16a/LL	.	.	.	.	.	.	.
.	.	.	16f#/	.	16a/	.	.	.	.	.	.	.
8D/J	.	.	16f#/	.	16a/	.	.	.	.	.	.	.
.	.	.	16f#/JJ	.	16a/JJ	.	.	.	.	.	.	.
!	!	!	!	!	!LO:LB:g=original	!	!	!	!	!	!	!
=52	=52	=52	=52	=52	=52	=52	=52	=52	=52	=52	=52	=52
!	!	!	!	!	!	!	!	!	!	!	!LO:SIC:v:s=4e	!
8AA/L	2	.	16ee\LL	.	16gg\LL	.	0r	.	0r	.	4f#\	4g\
.	.	.	16ee\	.	16gg\	.	.	.	.	.	.	.
8AA/	.	.	16cc#\	.	16ee\	.	.	.	.	.	.	.
.	.	.	16cc#\JJ	.	16ee\JJ	.	.	.	.	.	.	.
8AA/	.	.	16a/LL	.	16cc#/LL	.	.	.	.	.	4r	4r
.	.	.	16a/	.	16cc#/	.	.	.	.	.	.	.
8AA/J	.	.	16e/	.	16g/	.	.	.	.	.	.	.
.	.	.	16e/JJ	.	16g/JJ	.	.	.	.	.	.	.
!	!	!	!	!	!	!	!	!	!	!	!LO:LB:g=original	!
=53	=53	=53	=53	=53	=53	=53	=53	=53	=53	=53	=53	=53
*	*	*	*^	*	*	*	*	*	*	*	*	*
!	!	!	!	!LO:MO:mod=.	!	!	!	!	!	!	!	!	!
8AA/L	.	.	16e/LL	16e\LL	.	16g/LL	.	.	.	.	.	8e\L	8g\L
!	!	!	!	!LO:MO:mod=.	!	!	!	!	!	!	!	!	!
.	.	.	16e/	16e\	.	16g/	.	.	.	.	.	.	.
!	!	!	!	!LO:MO:mod=.	!	!	!	!	!	!	!	!	!
8AA/	.	.	16e/	16e\	.	16g/	.	.	.	.	.	8e\	8g\
!	!	!	!	!LO:MO:mod=.	!	!	!	!	!	!	!	!	!
.	.	.	16e/JJ	16e\JJ	.	16g/JJ	.	.	.	.	.	.	.
!	!	!	!	!LO:MO:mod=.	!	!	!	!	!	!	!	!	!
8AA/	.	.	16e/LL	4ryy	.	16g/LL	.	.	.	.	.	8e\	8g\
.	.	.	16e/	.	.	16g/	.	.	.	.	.	.	.
8AA/J	.	.	16e/	.	.	16g/	.	.	.	.	.	8e\J	8g\J
.	.	.	16e/JJ	.	.	16g/JJ	.	.	.	.	.	.	.
*	*	*	*v	*v	*	*	*	*	*	*	*	*	*
=54	=54	=54	=54	=54	=54	=54	=54	=54	=54	=54	=54	=54
!LO:TX:t=P:problem=mixed beam	!	!	!	!	!	!	!	!	!	!	!	!
8A\L	.	.	16d/LL	.	16f#/LL	.	.	.	.	.	8d/L	8f#\L
.	.	.	16c#/J	.	16e/J	.	.	.	.	.	.	.
8AA/J	.	.	8c#/J	.	8e/J	.	.	.	.	.	8A/J	8e\J
16A\LL	.	.	8r	.	8r	.	.	.	.	.	8r	8r
16A\	.	.	.	.	.	.	.	.	.	.	.	.
16G\	2	.	8e/	.	8cc#\	.	.	.	.	.	8e\	8g\
16G\JJ	.	.	.	.	.	.	.	.	.	.	.	.
!	!	!	!LO:LB:g=original	!	!	!	!	!	!	!	!	!
=55	=55	=55	=55	=55	=55	=55	=55	=55	=55	=55	=55	=55
8F#\L	.	.	8f#/L	.	16dd\LL	.	.	.	.	.	4d\	4f#\
.	.	.	.	.	16a\	.	.	.	.	.	.	.
8D\	.	.	8g/J	.	16f#\	.	.	.	.	.	.	.
.	.	.	.	.	16a\JJ	.	.	.	.	.	.	.
8G\	.	.	8g/L	.	16b/LL	.	.	.	.	.	8g\L	8b\L
.	.	.	.	.	16g/	.	.	.	.	.	.	.
8G\J	.	.	16e/L	.	16e/	.	.	.	.	.	8e\J	8g\J
.	.	.	16d/JJ	.	16d/JJ	.	.	.	.	.	.	.
=56	=56	=56	=56	=56	=56	=56	=56	=56	=56	=56	=56	=56
!LO:TX:t=P:problem=mixed beam	!	!	!	!	!	!	!	!	!	!	!	!
8A\L	4	.	16d/LL	.	16f#/LL	.	2r	.	2r	.	8d/L	8f#\L
.	.	.	16d/	.	16f#/	.	.	.	.	.	.	.
8A\	.	.	16d/	.	16f#/	.	.	.	.	.	8d/	8f#\
.	.	.	16d/JJ	.	16f#/JJ	.	.	.	.	.	.	.
8AA/	3	.	16c#/LL	.	16e/LL	.	.	.	.	.	8A/	8e\
.	.	.	16c#/	.	16e/	.	.	.	.	.	.	.
8AA/J	.	.	16c#/	.	16e/	.	.	.	.	.	8A/J	8e\J
.	.	.	16c#/JJ	.	16e/JJ	.	.	.	.	.	.	.
=57	=57	=57	=57	=57	=57	=57	=57	=57	=57	=57	=57	=57
8D/L	.	.	4d/	.	4d/	.	4r	.	4r	.	4F#/	4d\
8AA/	.	.	.	.	.	.	.	.	.	.	.	.
8DD/J	.	.	8r	.	8r	.	8r	.	8r	.	4r	4r
!	!	!	!	!	!	!	!	!LO:MO:mod=cu-	!	!	!	!
8r	.	.	8a/	.	8a/	.	8a\	Cu-	8a\	cu-	.	.
=58	=58	=58	=58	=58	=58	=58	=58	=58	=58	=58	=58	=58
!	!	!LO:DY:a	!	!LO:DY:a	!	!LO:DY:a	!	!	!	!	!	!
!	!	!	!LO:TX:t=P:problem:nieczytelna belka	!	!	!	!	!	!	!	!	!
8D/L	.	p	8dd\L	p	4dd\	p	4dd\	-jus	8dd\	-jus	8r	8r
!	!	!	!	!	!	!	!	!	!	!LO:MO:mod=re-	!	!
8D/	.	.	8dd\	.	.	.	.	.	8dd\	Re-	8d\	8f#\
!	!	!	!	!	!	!	!	!LO:MO:mod=re-	!	!	!	!
8D/	.	.	8ff#\	.	4aa\	.	8ff#\	Re-	4aa\	-gni	8r	8r
8D/J	.	.	8ff#\J	.	.	.	8ff#\	-gni	.	.	8f#\	8a\
!	!	!	!	!	!	!	!	!	!	!	!	!LO:LB:g=original
=59	=59	=59	=59	=59	=59	=59	=59	=59	=59	=59	=59	=59
8AA/L	8	.	8a/L	.	8ff#\L	.	8dd\L	non	8ff#\L	non	8f#\L	8a\L
8AA/	7	.	8g/	.	8ee\	.	8g\J	.	8ee\J	.	8e\	8g\
8AA/	9	.	8f#/	.	8dd\	.	8f#/	e-	8dd\	e-	8d\	8f#\
8AA/J	5	.	8e/J	.	8cc#\J	.	8e/	-rit	8cc#\	-rit	8A\J	8e\J
!LO:PB:g=original	!	!	!	!	!	!	!	!	!	!	!	!
=60	=60	=60	=60	=60	=60	=60	=60	=60	=60	=60	=60	=60
!	!	!	!	!	!	!	!	!LO:MO:mod=fi-	!	!LO:MO:mod=fi-	!	!
8D/L	.	.	8f#/L	.	8dd\L	.	8f#/	Fi-	8dd\	Fi-	4F#/	8d\L
!	!	!	!	!	!	!	!	!LO:MO:mod=-nis.	!	!LO:MO:mod=-nis.	!	!
8D/	.	.	8f#/J	.	8a\J	.	8f#/	-nis	8a\	-nis:	.	8A\J
8D/	.	.	8r	.	8r	.	8r	.	8r	.	4r	4r
!	!	!	!	!	!	!	!	!LO:MO:mod=Et	!	!LO:MO:mod=Et	!	!
8D/J	.	.	8a/	.	8a/	.	8a\	et	8a\	et	.	.
=61	=61	=61	=61	=61	=61	=61	=61	=61	=61	=61	=61	=61
!	!	!	!	!	!	!	!	!	!	!	!LO:TX:a:t=1:mod=	!LO:TX:a:t=1:mod=
8D/L	.	.	8dd\L	.	4dd\	.	4dd\	in	4dd\	in	2r	2r
8D/	.	.	8dd\	.	.	.	.	.	.	.	.	.
8D/	.	.	8dd\	.	8ff#\L	.	8dd\	Spo-	8ff#\	Spi-	.	.
8D/J	.	.	8ff#\J	.	8aa\J	.	16ff#\	-ri-	16aa\	-ri-	.	.
.	.	.	.	.	.	.	16ff#\	-tum	16aa\	-tum	.	.
!	!	!	!	!	!	!	!LO:LB:g=original	!	!	!	!	!
=62	=62	=62	=62	=62	=62	=62	=62	=62	=62	=62	=62	=62
8AA/L	8	.	8a/L	.	8ff#\L	.	8dd\L	San-	8ff#\L	San-	8f#\L	8a\L
8AA/	2	.	8g/	.	8ee\	.	8g\J	.	8ee\J	.	8e\	8g\
!	!	!	!	!	!	!	!	!LO:MO:mod=-ctum	!	!	!	!
8AA/	6	.	8f#/	.	8dd\	.	8f#/L	-ctu(m)	8dd\L	-ctum	8d\	8f#\
8AA/J	5	.	8e/J	.	8cc#\J	.	8e/J	.	8cc#\J	.	8A\J	8e\J
!	!	!	!	!	!	!	!	!	!LO:LB:g=original	!	!	!
=63	=63	=63	=63	=63	=63	=63	=63	=63	=63	=63	=63	=63
!	!	!	!	!	!	!	!	!LO:MO:mod=Do-	!	!LO:MO:mod=Do-	!	!
8D/L	.	.	8f#/L	.	8dd\L	.	8f#/	do-	8dd\	do-	4F#/	8d\L
8D/	.	.	8f#/J	.	8a\J	.	16f#/	-mi-	16a\	-mi-	.	8A\J
!	!	!	!	!	!	!	!	!LO:MO:mod=-num	!	!LO:MO:mod=-num	!	!
.	.	.	.	.	.	.	16f#/	-nu(m)	16a\	-nu(m)	.	.
8D/	.	.	8r	.	8r	.	8r	.	8r	.	8r	8r
8D/J	.	.	8f#/	.	8a/	.	16f#/	et	16a\	et	8f#\	8a\
.	.	.	.	.	.	.	16f#/	in	16a\	in	.	.
!	!	!	!	!	!LO:LB:g=original	!	!	!	!	!	!	!
=64	=64	=64	=64	=64	=64	=64	=64	=64	=64	=64	=64	=64
!	!	!	!	!	!	!	!	!	!	!	!LO:MO:mod=*null:null	!LO:MO:mod=*null:null
*	*	*	*	*	*	*	*	*	*	*	*2\right	*2\right
8F#\L	.	.	16a/LL	.	16ccn\LL	.	4a\	vi-	4ccn\	vi-	[2a\	[2ccX\
.	.	.	16a/	.	16cc\	.	.	.	.	.	.	.
8F#\	.	.	16a/	.	16cc\	.	.	.	.	.	.	.
.	.	.	16a/JJ	.	16cc\JJ	.	.	.	.	.	.	.
8F#\	.	.	16a/LL	.	16cc\LL	.	8a\	-vi-	8cc\	-vi-	.	.
.	.	.	16a/	.	16cc\	.	.	.	.	.	.	.
8F#\J	.	.	16a/	.	16cc\	.	8a\	-fi-	8cc\	-fi-	.	.
.	.	.	16a/JJ	.	16cc\JJ	.	.	.	.	.	.	.
!	!	!	!LO:LB:g=original	!	!	!	!	!	!	!	!	!
=65	=65	=65	=65	=65	=65	=65	=65	=65	=65	=65	=65	=65
*	*	*	*^	*	*	*	*	*	*	*	*	*
!	!	!	!	!LO:MO:mod=.	!	!LO:SIC:v:s=16ccLL	!	!	!	!LO:SIC:v:s=8ccL	!	!	!
8F#\L	.	.	16a/LL	8ryy	.	16cc#\LL	.	8a\	-can-	8cc#\L	-can-	2a\]	2cc\]
!	!	!	!	!	!	!LO:SIC:v:s=16cc	!	!	!	!	!	!	!
.	.	.	16a/	.	.	16cc#\	.	.	.	.	.	.	.
!	!	!	!	!LO:MO:mod=.	!	!	!	!LO:SIC:s=4cc	!	!	!	!	!
8F#\	.	.	16ccn/	16ccn\LL	.	16ff#\	.	4cc#\	.	8ff#\	.	.	.
!	!	!	!	!LO:MO:mod=.	!	!	!	!	!	!	!	!	!
.	.	.	16cc/JJ	16cc\JJ	.	16ff#\JJ	.	.	.	.	.	.	.
!	!	!	!	!LO:MO:mod=.	!	!	!	!	!	!	!	!	!
8F#\	.	.	16ff#/LL	4ryy	.	16aa\LL	.	.	.	8aa\	.	.	.
.	.	.	16ff#/	.	.	16aa\	.	.	.	.	.	.	.
!	!	!	!	!	!	!LO:SIC:v:s=16cc	!	!	!	!	!	!	!
8F#\J	.	.	16a/	.	.	16cc#\	.	8a\	.	8cc\J	.	.	.
!	!	!	!	!	!	!LO:SIC:v:s=16ccJJ	!	!	!	!	!	!	!
.	.	.	16a/JJ	.	.	16cc#\JJ	.	.	.	.	.	.	.
*	*	*	*v	*v	*	*	*	*	*	*	*	*	*
=66	=66	=66	=66	=66	=66	=66	=66	=66	=66	=66	=66	=66
!	!	!	!	!	!	!	!	!	!	!	!	!LO:SIC:v:s=8ccL
8G\L	.	.	16a/LL	.	16ccn\LL	.	16a\LL	.	16ccn\LL	.	8a\L	8cc#\L
.	.	.	16g/J	.	16b\J	.	16g\JJ	.	16b\JJ	.	.	.
8G\	.	.	8g/J	.	8b\J	.	8g\	-tem	8b\	-tem	8g\J	8b\J
8G\	.	.	8r	.	8r	.	8r	.	8r	.	8r	8r
!	!	!	!	!	!	!	!LO:SIC:s=16g	!	!	!	!	!
8G\J	.	.	8g/	.	8b/	.	16g#X/	qui	16b\	qui	8g\	8b\
!	!	!	!	!	!	!	!LO:SIC:s=16g	!	!	!	!	!
.	.	.	.	.	.	.	16g#/	ex	16b\	ex	.	.
=67	=67	=67	=67	=67	=67	=67	=67	=67	=67	=67	=67	=67
8G#X\L	.	.	16b/LL	.	16dd\LL	.	4b\	Pa-	4dd\	Pa-	[2b\	[2dd\
.	.	.	16b/	.	16dd\	.	.	.	.	.	.	.
8G#\	.	.	16b/	.	16dd\	.	.	.	.	.	.	.
.	.	.	16b/JJ	.	16dd\JJ	.	.	.	.	.	.	.
8G#\	.	.	16b/LL	.	16dd\LL	.	8b\	-tre	8dd\	-tre	.	.
.	.	.	16b/	.	16dd\	.	.	.	.	.	.	.
8G#\J	.	.	16b/	.	16dd\	.	8b\	Fi-	8dd\	Fi-	.	.
.	.	.	16b/JJ	.	16dd\JJ	.	.	.	.	.	.	.
=68	=68	=68	=68	=68	=68	=68	=68	=68	=68	=68	=68	=68
!LO:SIC:v:s=8G#L	!	!	!	!	!	!	!	!	!	!	!	!
8G\L	.	.	16b\LL	.	16dd\LL	.	8b\	-li-	8dd\	-li-	2b\]	2dd\]
.	.	.	16b\	.	16dd\	.	.	.	.	.	.	.
!LO:SIC:v:s=8G#	!	!	!	!	!LO:SIC:s=16gg#	!	!	!	!	!	!	!
8G\	.	.	16dd\	.	16gg\	.	8dd\	-o-	8dd\	-o-	.	.
!	!	!	!	!	!LO:SIC:s=16gg#JJ	!	!	!	!	!	!	!
.	.	.	16dd\JJ	.	16gg\JJ	.	.	.	.	.	.	.
!	!	!	!	!	!	!	!LO:LB:g=original	!	!	!	!	!
!LO:SIC:v:s=8G#	!	!	!	!	!	!	!	!	!	!	!	!
8G\	.	.	16gg#X\LL	.	16bb\LL	.	8dd\	-que	8dd\	-que	.	.
.	.	.	16gg#\	.	16bb\	.	.	.	.	.	.	.
!LO:SIC:v:s=8G#J	!	!	!	!	!	!	!	!	!	!	!	!
8G\J	.	.	16b\	.	16dd\	.	8b\	pro-	8dd\	pro-	.	.
.	.	.	16b\JJ	.	16dd\JJ	.	.	.	.	.	.	.
=69	=69	=69	=69	=69	=69	=69	=69	=69	=69	=69	=69	=69
8A\L	.	.	16b/LL	.	16dd\LL	.	16b\LL	-ce-	16dd\LL	-ce-	8b\L	8dd\L
!	!	!	!	!	!	!	!	!	!LO:SIC:s=16cc#JJ	!	!	!
.	.	.	16a/J	.	16cc#X\J	.	16a\JJ	.	16cc#X\JJ	.	.	.
8A\	.	.	8a/J	.	8cc#\J	.	8a\	-dit	8cc#\	-dit	8a\J	8cc#\J
!	!	!	!	!	!	!	!	!	!LO:LB:g=original	!	!	!
8A\	.	.	8r	.	8r	.	4r	.	8r	.	8r	8r
8A\J	.	.	8f#/	.	8a/	.	.	.	16a\	qui	8f#\	8a\
.	.	.	.	.	.	.	.	.	16a\	cum	.	.
=70	=70	=70	=70	=70	=70	=70	=70	=70	=70	=70	=70	=70
!	!	!	!	!	!	!	!LO:TX:a:t=7:mod=	!	!	!	!	!
8G\L	.	.	8g/L	.	8b/L	.	0r	.	16b\LL	Pa-	8g\	8b\
.	.	.	.	.	.	.	.	.	16dd\JJ	.	.	.
8G\	.	.	8g/	.	8b/	.	.	.	16cc#\LL	-tre	8r	8r
.	.	.	.	.	.	.	.	.	16dd\JJ	.	.	.
!	!	!	!	!	!	!	!	!	!LO:SIC:s=16a	!	!LO:LB:g=original	!
8F#\	.	.	8f#/	.	8a/	.	.	.	16b\	et	8f#\	8a\
.	.	.	.	.	.	.	.	.	16dd\	Fi-	.	.
8F#\J	.	.	8f#/J	.	8a/J	.	.	.	16cc#\	-li-	8r	8r
.	.	.	.	.	.	.	.	.	16dd\	-o	.	.
!LO:LB:g=original	!	!	!	!	!	!	!	!	!	!	!	!
=71	=71	=71	=71	=71	=71	=71	=71	=71	=71	=71	=71	=71
8G\L	.	.	8g/L	.	8b/L	.	.	.	16b\LL	si-	8g\	8b\
.	.	.	.	.	.	.	.	.	16dd\JJ	.	.	.
8G\	.	.	8g/	.	8b/	.	.	.	16cc#\LL	-mul	8r	8r
.	.	.	.	.	.	.	.	.	16dd\JJ	.	.	.
8F#\	.	.	8f#/	.	8a/	.	.	.	16a\LL	a-	8f#\	8a\
.	.	.	.	.	.	.	.	.	16dd\JJ	.	.	.
8F#\J	.	.	8f#/J	.	8a/J	.	.	.	16cc#\LL	-do-	8r	8r
.	.	.	.	.	.	.	.	.	16dd\JJ	.	.	.
=72	=72	=72	=72	=72	=72	=72	=72	=72	=72	=72	=72	=72
8E\L	.	.	16e/LL	.	16g/LL	.	.	.	8g\L	-ra-	4e\	4g\
.	.	.	16g/	.	16ee/	.	.	.	.	.	.	.
8C#\	.	.	16g/	.	16ee/	.	.	.	8ee\	.	.	.
.	.	.	16e/JJ	.	16g/JJ	.	.	.	.	.	.	.
8D\	.	.	16d/LL	.	16f#/LL	.	.	.	8f#\	.	4d\	4f#\
.	.	.	16f#/	.	16dd/	.	.	.	.	.	.	.
8G\J	.	.	16f#/	.	16dd/	.	.	.	8dd\J	.	.	.
.	.	.	16d/JJ	.	16f#/JJ	.	.	.	.	.	.	.
!	!	!	!LO:LB:g=original	!	!	!	!	!	!	!	!	!
=73	=73	=73	=73	=73	=73	=73	=73	=73	=73	=73	=73	=73
!LO:TX:t=P:problem=mixed beam	!	!	!	!	!	!	!	!	!	!	!	!
8A\L	.	.	16d/LL	.	16f#/LL	.	.	.	16f#/LL	.	8d/L	8f#\L
.	.	.	16c#/J	.	16e/J	.	.	.	16e/JJ	.	.	.
8AA/	.	.	8c#/J	.	8e/J	.	.	.	8e/	-tur	8A/J	8e\J
8A\	.	.	8r	.	8r	.	.	.	8r	.	8r	8r
8F#\J	.	.	8f#/	.	8a/	.	.	.	8a\	et	8f#\	8a\
!	!	!	!	!	!LO:LB:g=original	!	!	!	!	!	!	!
=74	=74	=74	=74	=74	=74	=74	=74	=74	=74	=74	=74	=74
8G\L	.	.	8g/L	.	8b/L	.	1r	.	16b\LL	con-	8g\	8b\
!	!	!	!	!	!	!	!	!	!LO:SIC:s=16ddJJ	!	!	!
.	.	.	.	.	.	.	.	.	16dd\	.	.	.
!	!	!	!	!	!	!	!	!	!LO:SIC:s=16cc#LL	!	!	!
8G\	.	.	8g/	.	8b/	.	.	.	16cc#\	-glo-	8r	8r
.	.	.	.	.	.	.	.	.	16dd\JJ	.	.	.
!	!	!	!	!	!	!	!	!	!LO:SIC:s=16aLL	!	!	!
8F#\	.	.	8f#/	.	8a/	.	.	.	16b\LL	-ri-	8f#\	8a\
.	.	.	.	.	.	.	.	.	16dd\JJ	.	.	.
8F#\J	.	.	8f#/J	.	8a/J	.	.	.	16cc#\LL	-fi	8r	8r
.	.	.	.	.	.	.	.	.	16dd\JJ	.	.	.
!	!	!	!	!	!	!	!	!	!LO:LB:g=original	!	!	!
=75	=75	=75	=75	=75	=75	=75	=75	=75	=75	=75	=75	=75
8G\L	.	.	8g/L	.	8b/L	.	.	.	16b\LL	con-	8g\	8b\
.	.	.	.	.	.	.	.	.	16dd\JJ	.	.	.
8G\	.	.	8g/	.	8b/	.	.	.	16cc#\LL	-glo-	8r	8r
.	.	.	.	.	.	.	.	.	16dd\JJ	.	.	.
8F#\	.	.	8f#/	.	8a/	.	.	.	16a\LL	-ri-	8f#\	8a\
.	.	.	.	.	.	.	.	.	16dd\JJ	.	.	.
8F#\J	.	.	8f#/J	.	8a/J	.	.	.	16cc#\LL	-fi-	8r	8r
.	.	.	.	.	.	.	.	.	16dd\JJ	.	.	.
=76	=76	=76	=76	=76	=76	=76	=76	=76	=76	=76	=76	=76
8E\L	.	.	16e/LL	.	16g/LL	.	2r	.	8g\L	-ca-	4e\	4g\
.	.	.	16g/	.	16ee/	.	.	.	.	.	.	.
8C#\	.	.	16g/	.	16ee/	.	.	.	8ee\	.	.	.
.	.	.	16e/JJ	.	16g/JJ	.	.	.	.	.	.	.
8D\	.	.	16d/LL	.	16f#/LL	.	.	.	8f#\	.	4d\	4f#\
.	.	.	16f#/	.	16dd/	.	.	.	.	.	.	.
8G\J	.	.	16f#/	.	16dd/	.	.	.	8dd\J	.	.	.
.	.	.	16d/JJ	.	16f#/JJ	.	.	.	.	.	.	.
=77	=77	=77	=77	=77	=77	=77	=77	=77	=77	=77	=77	=77
!LO:TX:t=P:problem=mixed beam	!	!	!	!	!	!	!	!	!	!	!	!
8A\L	.	.	16d/LL	.	16f#/LL	.	4r	.	16f#/LL	.	8d/L	8f#\L
.	.	.	16c#/J	.	16e/J	.	.	.	16e/JJ	.	.	.
8AA/	.	.	8c#/J	.	8e/J	.	.	.	8e/	-tur	8A/J	8e\J
8A\	.	.	8r	.	8r	.	8r	.	8r	.	8r	8r
!	!	!	!	!	!	!	!LO:SIC:s=16e	!	!	!	!	!
8G\J	.	.	8e/	.	8cc#\	.	16f#/	qui	16a\	qui	8e\	8a\
!	!	!	!	!	!	!	!LO:SIC:s=16e	!	!	!	!	!
.	.	.	.	.	.	.	16f#/	lo-	16a\	lo-	.	.
=78	=78	=78	=78	=78	=78	=78	=78	=78	=78	=78	=78	=78
!	!	!	!	!	!	!	!	!	!	!	!	!LO:TX:t=P:problem:brak taktu
8F#\L	.	.	16a/LL	.	16dd\LL	.	8a\	-cu-	8dd\	-cu-	8d\L	2ryy
.	.	.	16a/	.	16dd\	.	.	.	.	.	.	.
8F#\	.	.	16a/	.	16dd\	.	16a\	-tus	16dd\	-tus	8d\	.
!	!	!	!	!	!	!	!	!	!	!LO:MO:mod=est	!	!
.	.	.	16a/JJ	.	16dd\JJ	.	16a\	est	16dd\	ets	.	.
8G\	.	.	16ee\LL	.	16gg\LL	.	8.ee\	per	8.gg\	per	8e\	.
.	.	.	16ee\	.	16gg\	.	.	.	.	.	.	.
8G\J	.	.	16ee\	.	16gg\	.	.	.	.	.	8e\J	.
!	!	!	!	!	!	!	!	!LO:MO:mod=Pro-	!	!LO:MO:mod=Pro-	!	!
.	.	.	16ee\JJ	.	16gg\JJ	.	16ee\	pro-	16gg\	pro-	.	.
=79	=79	=79	=79	=79	=79	=79	=79	=79	=79	=79	=79	=79
!LO:TX:t=P:problem=mixed beam	!	!	!	!	!	!	!	!	!	!	!	!
8A\L	4	.	16dd\LL	.	16ff#\LL	.	4dd\	-phe-	4ff#\	-phe-	8d/L	8f#\L
.	.	.	16dd\	.	16ff#\	.	.	.	.	.	.	.
8A\	.	.	16dd\	.	16ff#\	.	.	.	.	.	8d/	8f#\
.	.	.	16dd\JJ	.	16ff#\JJ	.	.	.	.	.	.	.
8AA/	3	.	16cc#\LL	.	16ee\LL	.	4cc#\	.	4ee\	.	8A/	8g\
.	.	.	16cc#\	.	16ee\	.	.	.	.	.	.	.
8AA/J	.	.	16cc#\	.	16ee\	.	.	.	.	.	8A/J	8g\J
.	.	.	16cc#\JJ	.	16ee\JJ	.	.	.	.	.	.	.
!	!	!	!	!	!	!	!	!	!	!	!	!LO:LB:g=original
=80	=80	=80	=80	=80	=80	=80	=80	=80	=80	=80	=80	=80
!	!	!	!	!	!	!	!	!LO:MO:mod=-tas.	!	!LO:MO:mod=-tas.	!	!
8D\L	.	.	4dd\	.	4dd\	.	4dd\	-tas	4dd\	-tas	4F#/	4d\
!	!	!LO:DY:a:mod= 	!	!	!	!	!	!	!	!	!	!
16D\L	.	f	.	.	.	.	.	.	.	.	.	.
16E\JJ	.	.	.	.	.	.	.	.	.	.	.	.
8F#\L	.	.	8r	.	8r	.	4r	.	4r	.	8r	8r
!	!	!LO:DY:t= :mod=%s	!	!LO:DY:a	!	!LO:DY:a	!	!	!	!	!	!
8D\J	.	f	8ff#\	f	8aa\	f	.	.	.	.	8f#\	8a\
=81	=81	=81	=81	=81	=81	=81	=81	=81	=81	=81	=81	=81
!	!	!	!	!	!	!	!	!	!LO:TX:a:t=6:mod=	!	!	!
8A\L	6	.	16ff#\LL	.	16aa\LL	.	0r	.	0r	.	8f#\L	8a\L
.	.	.	16a\	.	16a\	.	.	.	.	.	.	.
8A\	.	.	16a\	.	16a\	.	.	.	.	.	8f#\	8a\
.	.	.	16ff#\JJ	.	16aa\JJ	.	.	.	.	.	.	.
!	!	!	!	!	!LO:TX:t=P:problem=mixed beam	!	!	!	!	!	!	!
8A\	7	.	16ee\LL	.	16gg\LL	.	.	.	.	.	8e\	8g\
.	.	.	16a\	.	16a/	.	.	.	.	.	.	.
8A\J	.	.	16a\	.	16a/	.	.	.	.	.	8e\J	8g\J
.	.	.	16ee\JJ	.	16gg\JJ	.	.	.	.	.	.	.
!LO:LB:g=original	!	!	!LO:LB:g=original	!	!	!	!	!	!	!	!	!
=82	=82	=82	=82	=82	=82	=82	=82	=82	=82	=82	=82	=82
!LO:TX:t=P:problem=mixed beam	!	!	!	!	!	!	!	!	!	!	!	!
8A\L	4	.	16dd\LL	.	16ff#\LL	.	.	.	.	.	8d/L	8f#\L
.	.	.	16cc#\J	.	16ee\J	.	.	.	.	.	.	.
8A\	3	.	8cc#\J	.	8ee\J	.	.	.	.	.	8A/J	8e\J
8A\	.	.	8r	.	8r	.	.	.	.	.	4r	4r
8AA/J	.	.	8f#/	.	8a/	.	.	.	.	.	.	.
=83	=83	=83	=83	=83	=83	=83	=83	=83	=83	=83	=83	=83
!	!	!	!	!	!	!	!	!	!	!	!LO:TX:a:t=1:mod=	!LO:TX:a:t=1:mod=
8AA/L	8	.	16f#/LL	.	16a/LL	.	.	.	.	.	2r	2r
.	.	.	16A/	.	16A/	.	.	.	.	.	.	.
8AA/	.	.	16A/	.	16A/	.	.	.	.	.	.	.
.	.	.	16f#/JJ	.	16a/JJ	.	.	.	.	.	.	.
8AA/	7	.	16e/LL	.	16g/LL	.	.	.	.	.	.	.
.	.	.	16A/	.	16A/	.	.	.	.	.	.	.
8AA/J	.	.	16A/	.	16A/	.	.	.	.	.	.	.
.	.	.	16e/JJ	.	16g/JJ	.	.	.	.	.	.	.
=84	=84	=84	=84	=84	=84	=84	=84	=84	=84	=84	=84	=84
8AA/L	4	.	16d/LL	.	16f#/LL	.	.	.	.	.	4r	4r
.	.	.	16c#/J	.	16e/J	.	.	.	.	.	.	.
8AA/J	3	.	8c#/J	.	8e/J	.	.	.	.	.	.	.
16A\LL	.	.	8r	.	8r	.	.	.	.	.	8r	8r
16A\	.	.	.	.	.	.	.	.	.	.	.	.
16G\	.	.	8e/	.	8cc#\	.	.	.	.	.	8e\	8g\
16G\JJ	.	.	.	.	.	.	.	.	.	.	.	.
!	!	!	!	!	!LO:LB:g=original	!	!	!	!	!	!	!
=85	=85	=85	=85	=85	=85	=85	=85	=85	=85	=85	=85	=85
8F#\L	.	.	8a/L	.	16dd\LL	.	1r	.	1r	.	4d\	4f#\
.	.	.	.	.	16a\	.	.	.	.	.	.	.
8D\	.	.	8f#/J	.	16f#\	.	.	.	.	.	.	.
.	.	.	.	.	16a\JJ	.	.	.	.	.	.	.
8G\	.	.	8g/L	.	16b/LL	.	.	.	.	.	8g\L	8b\L
.	.	.	.	.	16g/	.	.	.	.	.	.	.
8G\J	.	.	16e/L	.	16e/	.	.	.	.	.	8e\J	8g\J
.	.	.	16d/JJ	.	16d/JJ	.	.	.	.	.	.	.
!	!	!	!	!	!	!	!	!	!	!	!LO:LB:g=original	!
=86	=86	=86	=86	=86	=86	=86	=86	=86	=86	=86	=86	=86
!LO:TX:t=P:problem=mixed beam	!	!	!	!	!	!	!	!	!	!	!	!
8A\L	4	.	16d/LL	.	16f#/LL	.	.	.	.	.	8d/L	8f#\L
.	.	.	16d/	.	16f#/	.	.	.	.	.	.	.
8A\	.	.	16d/	.	16f#/	.	.	.	.	.	8d/	8f#\
.	.	.	16d/JJ	.	16f#/JJ	.	.	.	.	.	.	.
8AA/	3	.	16c#/LL	.	16e/LL	.	.	.	.	.	8A/	8e\
.	.	.	16c#/	.	16e/	.	.	.	.	.	.	.
8AA/J	.	.	16c#/	.	16e/	.	.	.	.	.	8A/J	8e\J
.	.	.	16c#/JJ	.	16e/JJ	.	.	.	.	.	.	.
!	!	!	!	!	!	!	!	!	!LO:LB:g=original	!	!	!
=87	=87	=87	=87	=87	=87	=87	=87	=87	=87	=87	=87	=87
8D/L	.	.	4d/	.	4d/	.	4r	.	4r	.	4F#/	4d\
8AA/	.	.	.	.	.	.	.	.	.	.	.	.
8DD/J	.	.	8r	.	8r	.	8r	.	8r	.	4r	4r
!	!	!	!	!	!	!	!	!LO:MO:mod=Et	!	!LO:MO:mod=Et	!	!
8r	.	.	8f#/	.	8a/	.	8a\	et	8a\	et	.	.
!	!	!	!	!	!	!	!LO:LB:g=original	!	!	!	!	!
=88	=88	=88	=88	=88	=88	=88	=88	=88	=88	=88	=88	=88
!	!	!LO:DY:a	!	!LO:DY:a	!	!LO:DY:a	!	!	!	!	!	!
8D/L	.	p	8dd\L	p	8dd\L	p	4dd\	u-	4dd\	u-	8r	8r
8D/	.	.	8dd\	.	8dd\	.	.	.	.	.	8d\	8f#\
8D/	.	.	8ff#\	.	8aa\	.	4ff#\	-nam	4aa\	-nam	8r	8r
8D/J	.	.	8ff#\J	.	8aa\J	.	.	.	.	.	8f#\	8a\
=89	=89	=89	=89	=89	=89	=89	=89	=89	=89	=89	=89	=89
!	!	!	!	!	!	!	!	!LO:MO:mod=san-	!	!	!	!
8AA/L	8	.	8a/L	.	8ff#\L	.	8dd\L	San-	8ff#\L	san-	8f#\L	8a\L
8AA/	2	.	8g/	.	8ee\	.	8g\J	.	8ee\J	.	8e\	8g\
!	!	!	!	!	!	!	!	!LO:MO:mod=-ctam	!	!LO:MO:mod=-ctam	!	!
8AA/	6	.	8f#/	.	8dd\	.	8f#/	-ct(am)	8dd\	-cta(m)	8d\	8f#\
8AA/J	5	.	8e/J	.	8cc#\J	.	8e/	ca-	8cc#\	ca-	8A\J	8e\J
=90	=90	=90	=90	=90	=90	=90	=90	=90	=90	=90	=90	=90
8D/L	.	.	4f#/	.	8dd\L	.	8f#/	-tho-	8dd\	-tho-	4F#/	8d\L
8D/	.	.	.	.	8a\J	.	16f#/	-li-	16a\	-li-	.	8A\J
.	.	.	.	.	.	.	16f#/	-cam	16a\	-cam	.	.
8D/	.	.	8r	.	8r	.	8r	.	8r	.	4r	4r
8D/J	.	.	8a/	.	8a/	.	8a\	et	8a\	et	.	.
=91	=91	=91	=91	=91	=91	=91	=91	=91	=91	=91	=91	=91
!	!	!	!	!	!	!	!	!	!	!	!LO:TX:a:t=1:mod=	!LO:TX:a:t=1:mod=
8D/L	.	.	8dd\L	.	8dd\L	.	4dd\	a-	4dd\	a-	2r	2r
8D/	.	.	8dd\	.	8dd\	.	.	.	.	.	.	.
8D/	.	.	8dd\	.	8ff#\	.	8dd\L	-po-	8ff#\L	-po-	.	.
!	!	!	!	!	!LO:SIC:s=8aaJ	!	!	!	!	!	!	!
8D/J	.	.	8ff#\J	.	8gg\J	.	8ff#\J	.	8aa\J	.	.	.
!	!	!	!LO:LB:g=original	!	!	!	!	!	!	!	!	!
=92	=92	=92	=92	=92	=92	=92	=92	=92	=92	=92	=92	=92
8AA/L	8	.	8a/L	.	8ff#\L	.	8dd\	-sto-	8ff#\	-sto-	8f#\L	8a\L
8AA/	2	.	8g/	.	8ee\	.	8g\	-li-	8ee\	-li-	8e\	8g\
8AA/	6	.	8f#/	.	8dd\	.	8f#/	-cam	8dd\	-cam	8d\	8f#\
!	!	!	!	!	!	!	!	!LO:MO:mod=Ec-	!	!	!	!
8AA/J	5	.	8e/J	.	8cc#\J	.	8e/	ec-	8cc#\	Ec-	8A\J	8e\J
=93	=93	=93	=93	=93	=93	=93	=93	=93	=93	=93	=93	=93
8D/L	.	.	4f#/	.	8dd\L	.	8f#/	-cle-	8dd\	-cle-	4F#/	8d\L
8D/	.	.	.	.	8a\J	.	16f#/	-si-	16a\	-si-	.	8A\J
.	.	.	.	.	.	.	16f#/	-am	16a\	-am	.	.
8D/	.	.	8r	.	8r	.	8r	.	8r	.	8r	8r
8D/J	.	.	8dd\	.	8ff#\	.	8dd\	con-	8ff#\	con-	8d\	8f#\
!	!	!	!	!	!	!	!	!	!LO:LB:g=original	!	!	!
=94	=94	=94	=94	=94	=94	=94	=94	=94	=94	=94	=94	=94
!	!	!LO:DY:t= :mod=%s	!	!	!	!LO:DY:t= :mod=%s	!	!	!	!	!	!
!	!	!LO:MO:mod=!LO&colon;DY&colon;ed=brack	!	!	!	!LO:MO:mod=!LO&colon;DY&colon;ed=brack	!	!	!	!	!	!
!	!	!null	!	!LO:DY:a	!	!null	!	!	!	!	!	!
8BB/L	.	f	16ff#\LL	f	16aa\LL	f	8ff#\	-fi-	8aa\	-fi-	2f#\	2a\
.	.	.	16ff#\	.	16aa\	.	.	.	.	.	.	.
!	!	!	!	!	!	!	!LO:LB:g=original	!	!	!	!	!
8BB/	.	.	16ff#\	.	16aa\	.	16ff#\	-te-	16aa\	-te-	.	.
.	.	.	16ff#\JJ	.	16aa\JJ	.	16ff#\	-or	16aa\	-or	.	.
8D#X/	.	.	16ff#\LL	.	16aa\LL	.	8ff#\	u-	8aa\	u-	.	.
.	.	.	16ff#\	.	16aa\	.	.	.	.	.	.	.
!	!	!	!	!	!	!	!	!	!	!LO:MO:mod=-nam	!	!
8D#/J	.	.	16ff#\	.	16aa\	.	16ff#\	nam	16aa\	-na(m)	.	.
.	.	.	16ff#\JJ	.	16aa\JJ	.	16ff#\	ba-	16aa\	ba-	.	.
=95	=95	=95	=95	=95	=95	=95	=95	=95	=95	=95	=95	=95
!	!	!	!	!	!	!	!LO:MO:mod=!null:null	!	!	!	!	!
!	!	!	!	!	!	!	!LO:N:vis=8	!	!	!	!	!
8E\L	.	.	16ff#\LL	.	16aa\LL	.	16ff#\LL	-ptis-	16aa\LL	-ptis-	8f#\L	8a\L
!	!	!	!	!	!	!	!LO:MO:mod=!null:null	!	!	!	!	!
!	!	!	!	!	!	!	!LO:N:vis=8	!	!	!	!	!
.	.	.	16ee\J	.	16gg\J	.	16ee\JJ	.	16gg\JJ	.	.	.
8E\	.	.	8ee\J	.	8gg\J	.	8ee\	-ma	8gg\	-ma	8e\J	8g\J
8E\	.	.	8r	.	8r	.	8r	.	8r	.	8r	8r
8E\J	.	.	8ee\	.	8gg\	.	16ee\	in	16ee\	in	8e\	8g\
.	.	.	.	.	.	.	16ee\	re-	16ee\	re-	.	.
=96	=96	=96	=96	=96	=96	=96	=96	=96	=96	=96	=96	=96
8AA/L	.	.	16ee\LL	.	16gg\LL	.	8ee\	-mis-	8gg\	-mis-	2e\	2g\
.	.	.	16ee\	.	16gg\	.	.	.	.	.	.	.
8AA/	.	.	16ee\	.	16gg\	.	16ee\	-si-	16gg\	-si-	.	.
.	.	.	16ee\JJ	.	16gg\JJ	.	16ee\	-o-	16gg\	-o-	.	.
!	!	!	!	!	!	!	!	!	!	!LO:MO:mod=-nem	!	!
8C#/	.	.	16ee\LL	.	16gg\LL	.	8ee\	-nem	8gg\	-ne(m)	.	.
.	.	.	16ee\	.	16gg\	.	.	.	.	.	.	.
8C#/J	.	.	16ee\	.	16gg\	.	16ee\	pec-	16gg\	pec-	.	.
.	.	.	16ee\JJ	.	16gg\JJ	.	16ee\	-ca-	16gg\	-ca-	.	.
=97	=97	=97	=97	=97	=97	=97	=97	=97	=97	=97	=97	=97
!LO:SIC:s=8DL	!	!	!	!	!	!	!	!	!	!	!	!
8Dn/L	.	.	16ee\LL	.	16gg\LL	.	16ee\LL	-to-	16gg\LL	-to-	8e\L	8g\L
.	.	.	16dd\J	.	16ff#\J	.	16dd\JJ	.	16ff#\JJ	.	.	.
8D/	.	.	8dd\J	.	8ff#\J	.	8dd\	-rum	8ff#\	-rum	8d\J	8f#\J
8D/	.	.	8r	.	8r	.	4r	.	8r	.	8r	8r
8D/J	.	.	8f#/	.	8a/	.	.	.	16a\	et	8f#\	8a\
.	.	.	.	.	.	.	.	.	16a\	ex-	.	.
!	!	!	!	!	!LO:LB:g=original	!	!	!	!	!	!	!
=98	=98	=98	=98	=98	=98	=98	=98	=98	=98	=98	=98	=98
!	!	!LO:DY:t= :mod=%s	!	!	!	!LO:DY:t= :mod=%s	!	!	!	!	!	!
!	!	!LO:MO:mod=!LO&colon;DY&colon;ed=brack	!	!	!	!LO:MO:mod=!LO&colon;DY&colon;ed=brack	!	!	!	!	!	!
!	!	!null	!	!LO:DY:a	!	!null	!	!	!	!LO:MO:mod=-spe-	!	!
8G\L	.	p	16g/LL	p	16b\LL	p	0r	.	8b\	-pe-	4g\	4b\
.	.	.	16g/	.	16b\	.	.	.	.	.	.	.
8G\	.	.	16dd/	.	16gg\	.	.	.	8gg\	-cto-	.	.
.	.	.	16dd/JJ	.	16gg\JJ	.	.	.	.	.	.	.
8G\	.	.	16b/LL	.	16dd\LL	.	.	.	8dd\	re-	4r	4r
.	.	.	16b/	.	16dd\	.	.	.	.	.	.	.
8G\J	.	.	16g/	.	16b\	.	.	.	8b\	-sur-	.	.
.	.	.	16g/JJ	.	16b\JJ	.	.	.	.	.	.	.
=99	=99	=99	=99	=99	=99	=99	=99	=99	=99	=99	=99	=99
8D/L	.	.	16f#/LL	.	16a\LL	.	.	.	8a/	-re-	4f#\	4a\
.	.	.	16f#/	.	16a\	.	.	.	.	.	.	.
8D/	.	.	16dd/	.	16ff#\	.	.	.	8ff#\	-cti-	.	.
.	.	.	16dd/JJ	.	16ff#\JJ	.	.	.	.	.	.	.
!	!	!	!	!	!	!	!	!	!LO:LB:g=original	!	!	!
8D/	.	.	16a/LL	.	16dd\LL	.	.	.	8dd\	-o-	4r	4r
.	.	.	16a/	.	16dd\	.	.	.	.	.	.	.
8D/J	.	.	16f#/	.	16a\	.	.	.	8a\	-nem	.	.
.	.	.	16f#/JJ	.	16a\JJ	.	.	.	.	.	.	.
=100	=100	=100	=100	=100	=100	=100	=100	=100	=100	=100	=100	=100
!	!	!	!	!	!	!	!	!	!	!LO:MO:mod=mor-	!	!
8AA/L	7	.	16e/LL	.	16g\LL	.	.	.	8g\	Mor-	4e\	4g\
.	.	.	16e/	.	16g\	.	.	.	.	.	.	.
8AA/	.	.	16cc#/	.	16ee\	.	.	.	8ee\	.	.	.
.	.	.	16cc#/JJ	.	16ee\JJ	.	.	.	.	.	.	.
8AA/	.	.	16g/LL	.	16cc#\LL	.	.	.	8cc#\L	-tu-	4r	4r
.	.	.	16g/	.	16cc#\	.	.	.	.	.	.	.
8AA/J	.	.	16e/	.	16g\	.	.	.	8g\J	.	.	.
.	.	.	16e/JJ	.	16g\JJ	.	.	.	.	.	.	.
!	!	!	!LO:LB:g=original	!	!	!	!	!	!	!	!	!LO:LB:g=original
=101	=101	=101	=101	=101	=101	=101	=101	=101	=101	=101	=101	=101
8D/L	2	.	16e/LL	.	16g/LL	.	.	.	16g/LL	-o-	8e\L	8g\L
.	.	.	16d/J	.	16f#/J	.	.	.	16f#/JJ	.	.	.
8D/	3	.	8d/J	.	8f#/J	.	.	.	8f#/	-rum	8d\J	8f#\J
8D/	.	.	8r	.	8r	.	.	.	8r	.	8r	8r
!	!	!LO:DY:t= :mod=%s	!	!	!	!LO:DY:t= :mod=%s	!	!	!	!	!	!
!	!	!LO:MO:mod=!LO&colon;DY&colon;ed=brack	!	!	!	!LO:MO:mod=!LO&colon;DY&colon;ed=brack	!	!	!	!	!	!
!	!	!null	!	!LO:DY:a	!	!null	!	!	!	!	!	!
8D/J	.	f	8f#/	f	8a/	f	.	.	8a\	et	8f#\	8a\
=102	=102	=102	=102	=102	=102	=102	=102	=102	=102	=102	=102	=102
8G\L	.	.	16g/LL	.	16b\LL	.	1r	.	8b\L	vi-	4g\	4b\
.	.	.	16g/	.	16b\	.	.	.	.	.	.	.
8G\	.	.	16dd/	.	16gg\	.	.	.	8gg\J	.	.	.
.	.	.	16dd/JJ	.	16gg\JJ	.	.	.	.	.	.	.
8G\	.	.	16b/LL	.	16dd\LL	.	.	.	8dd\	-tam	4r	4r
.	.	.	16b/	.	16dd\	.	.	.	.	.	.	.
8G\J	.	.	16g/	.	16b\	.	.	.	8b\	ven-	.	.
.	.	.	16g/JJ	.	16b\JJ	.	.	.	.	.	.	.
=103	=103	=103	=103	=103	=103	=103	=103	=103	=103	=103	=103	=103
8D/L	2	.	16f#/LL	.	16a\LL	.	.	.	8a\	-tu-	4f#\	4a\
.	.	.	16f#/	.	16a\	.	.	.	.	.	.	.
8D/	3	.	16dd/	.	16ff#\	.	.	.	8ff#\	-ri	.	.
.	.	.	16dd/JJ	.	16ff#\JJ	.	.	.	.	.	.	.
8D/	.	.	16a/LL	.	16dd\LL	.	.	.	8dd\	sae-	4r	4r
.	.	.	16a/	.	16dd\	.	.	.	.	.	.	.
8D/J	.	.	16f#/	.	16a\	.	.	.	16a\	-cu-	.	.
.	.	.	16f#/JJ	.	16a\JJ	.	.	.	16a\	-li	.	.
!LO:LB:g=original	!	!	!	!	!	!	!	!	!	!	!LO:LB:g=original	!
=104	=104	=104	=104	=104	=104	=104	=104	=104	=104	=104	=104	=104
8AA/L	7	.	16e/LL	.	16g\LL	.	2r	.	8g\L	a-	4e\	4g\
.	.	.	16e/	.	16g\	.	.	.	.	.	.	.
8AA/	.	.	16cc#/	.	16ee\	.	.	.	8ee\	.	.	.
.	.	.	16cc#/JJ	.	16ee\JJ	.	.	.	.	.	.	.
8AA/	.	.	16g/LL	.	16cc#/LL	.	.	.	8cc#\	.	4r	4r
.	.	.	16g/	.	16cc#/	.	.	.	.	.	.	.
8AA/J	.	.	16e/	.	16g/	.	.	.	8g\J	.	.	.
.	.	.	16e/JJ	.	16g/JJ	.	.	.	.	.	.	.
=105	=105	=105	=105	=105	=105	=105	=105	=105	=105	=105	=105	=105
8AA/L	4	.	16d/LL	.	16f#/LL	.	4r	.	16f#/LL	.	8d/L	8f#\L
.	.	.	16c#/J	.	16e/J	.	.	.	16e/JJ	.	.	.
8AA/	3	.	8c#/J	.	8e/J	.	.	.	8e/	-men	8A/J	8e\J
8AA/	.	.	8r	.	8r	.	8r	.	8r	.	8r	8r
8AA/J	4	.	8ff#\	.	8aa\	.	8ff#\	a-	8aa\	a-	8f#\	8a\
!	!	!	!	!	!	!	!LO:LB:g=original	!	!LO:LB:g=original	!	!	!
=106	=106	=106	=106	=106	=106	=106	=106	=106	=106	=106	=106	=106
!	!	!	!	!	!LO:TX:t=P:problem=mixed beam	!	!	!	!	!	!	!
8A\L	8	.	16ff#\LL	.	16aa\LL	.	8ff#\L	.	8aa\L	.	4f#\	4a\
.	.	.	16a\	.	16a/	.	.	.	.	.	.	.
8A\	.	.	16a\	.	16a/	.	16dd\L	.	16ff#\L	.	.	.
.	.	.	16ff#\JJ	.	16aa\JJ	.	16ff#\JJ	.	16aa\JJ	.	.	.
!	!	!	!	!	!LO:TX:t=P:problem=mixed beam	!	!	!	!	!	!	!
8A\	7	.	16ee\LL	.	16gg\LL	.	8ee\L	.	8gg\L	.	4e\	4g\
.	.	.	16a\	.	16a/	.	.	.	.	.	.	.
8A\J	.	.	16a\	.	16a/	.	16cc#\L	.	16ee\L	.	.	.
.	.	.	16ee\JJ	.	16gg\JJ	.	16ee\JJ	.	16gg\JJ	.	.	.
=107	=107	=107	=107	=107	=107	=107	=107	=107	=107	=107	=107	=107
8A\L	4	.	16dd\LL	.	16ff#\LL	.	8dd\	.	8ff#\	.	8d/L	8f#\L
.	.	.	16cc#\J	.	16ee\J	.	.	.	.	.	.	.
8A\	3	.	8cc#\J	.	8ee\J	.	8cc#\	-men	8ee\	-men	8A/J	8e\J
8A\	.	.	8r	.	8r	.	8r	.	8r	.	4r	4r
8A\J	4	.	8f#/	.	8a/	.	8f#/	a-	8a\	a-	.	.
!	!	!	!	!	!LO:LB:g=original	!	!	!	!	!	!	!
=108	=108	=108	=108	=108	=108	=108	=108	=108	=108	=108	=108	=108
!	!	!	!	!	!	!	!	!	!	!	!LO:TX:a:t=1:mod=	!LO:TX:a:t=1:mod=
8AA/L	8	.	16f#/LL	.	16a/LL	.	8f#/L	.	8a/L	.	2r	2r
.	.	.	16A/	.	16A/	.	.	.	.	.	.	.
8AA/	.	.	16A/	.	16A/	.	16d/L	.	16f#/L	.	.	.
.	.	.	16f#/JJ	.	16a/JJ	.	16f#/JJ	.	16a/JJ	.	.	.
8AA/	7	.	16e/LL	.	16g/LL	.	8e/L	.	8g/L	.	.	.
.	.	.	16A/	.	16A/	.	.	.	.	.	.	.
8AA/J	.	.	16A/	.	16A/	.	16c#/L	.	16e/L	.	.	.
.	.	.	16e/JJ	.	16g/JJ	.	16e/JJ	.	16g/JJ	.	.	.
!	!	!	!LO:LB:g=original	!	!	!	!	!	!	!	!	!
=109	=109	=109	=109	=109	=109	=109	=109	=109	=109	=109	=109	=109
!LO:TX:t=P:problem=mixed beam	!	!	!	!	!	!	!	!	!	!	!	!
8AA/L	.	.	16d/LL	.	16f#/LL	.	8d/	.	8f#/	.	4r	4r
.	.	.	16c#/J	.	16e/J	.	.	.	.	.	.	.
8A\J	.	.	8c#/J	.	8e/J	.	8c#/	-men	8e/	-men	.	.
16A\LL	.	.	8r	.	8r	.	8r	.	8r	.	8r	8r
16A\	.	.	.	.	.	.	.	.	.	.	.	.
16G\	2	.	8e/	.	8cc#\	.	8e/	a-	8cc#\	a-	8e\	8g\
16G\JJ	.	.	.	.	.	.	.	.	.	.	.	.
=110	=110	=110	=110	=110	=110	=110	=110	=110	=110	=110	=110	=110
8F#\L	.	.	16a/LL	.	16dd\LL	.	4f#/	.	4dd\	.	8d\L	8f#\L
.	.	.	16a/	.	16dd\	.	.	.	.	.	.	.
8F#\	.	.	16a/	.	16dd\	.	.	.	.	.	8d\	8f#\
.	.	.	16a/JJ	.	16dd\JJ	.	.	.	.	.	.	.
8G\	6	.	16ee\LL	.	16gg\LL	.	4ee\	.	4gg\	.	8e\	8g\
.	.	.	16ee\	.	16gg\	.	.	.	.	.	.	.
8G\J	.	.	16ee\	.	16gg\	.	.	.	.	.	8e\J	8g\J
.	.	.	16ee\JJ	.	16gg\JJ	.	.	.	.	.	.	.
=111	=111	=111	=111	=111	=111	=111	=111	=111	=111	=111	=111	=111
!LO:TX:t=P:problem=mixed beam	!	!	!	!	!	!	!	!	!	!	!	!
8A\L	4	.	16dd\LL	.	16ff#\LL	.	4dd\	.	4ff#\	.	8d/L	8f#\L
.	.	.	16dd\	.	16ff#\	.	.	.	.	.	.	.
8A\	.	.	16dd\	.	16ff#\	.	.	.	.	.	8d/	8f#\
.	.	.	16dd\JJ	.	16ff#\JJ	.	.	.	.	.	.	.
8AA/	3	.	16cc#\LL	.	16ee\LL	.	4cc#\	.	4ee\	.	8A/	8e\
.	.	.	16cc#\	.	16ee\	.	.	.	.	.	.	.
8AA/J	.	.	16cc#\	.	16ee\	.	.	.	.	.	8A/J	8e\J
.	.	.	16cc#\JJ	.	16ee\JJ	.	.	.	.	.	.	.
=112	=112	=112	=112	=112	=112	=112	=112	=112	=112	=112	=112	=112
!	!	!	!	!	!	!	!	!LO:MO:mod=-men.	!	!LO:MO:mod=-men.	!	!
4D/	.	.	4dd\	.	4dd\	.	4dd\	-men	4dd\	-men	4F#/	4d\
4r	.	.	4r	.	4r	.	4r	.	4r	.	4r	4r
==	==	==	==	==	==	==	==	==	==	==	==	==
*-	*-	*-	*-	*-	*-	*-	*-	*-	*-	*-	*-	*-
!!!system-decoration: [(s1,s2)][(s3,s4)][(s5,s6)]<s7>
!!!RDF**kern: @ = marked note, color=grey
!!LO:MO:ori
!!!RDF**dynam: p = pia
!!!RDF**dynam: f = for
!!LO:MO:end
!!!filter-modern: shed -X dynam -e "s/:a/:A/LX" | shed -e "s/:rj/:RJ/L" | shed -e "s/TX(.*):t=P:/tx$1:t=P:/LG" | sic -sq | modori -m | autostem -r | tie -s | humtr -p | shed -e "s/yy//"
!!!ENC: Krzysztof Stępień
!!!END: 2020-04-16
!!!ENC: Leszek Kubiak
!!!END: 2020-09-30
!!!ENC-modern: Andrzej Kubiczek
!!!END-modern: 2022-06-29
!!!YEC: Copyright 2022 Narodowy Instytut Fryderyka Chopina (https://polishscores.org)
!!!YEM: License CC-BY-4.0 (https://creativecommons.org/licenses/by/4.0)
